;Generated with Cura_SteamEngine 15.01
; Default start code
G28 ; Home extruder
G1 Z15 F1000
M107 ; Turn off fan
G90 ; Absolute positioning
M82 ; Extruder in absolute mode
M140 S100
; Activate all used extruder
M104 T0 S260
G92 E0 ; Reset extruder position
; Wait for all used extruders to reach temperature
M109 T0 S260
;Layer count: 164
;LAYER:0
M107
;LAYER:142
G1 F2400 E3182.94251
G0 F6900 X70.942 Y73.675 Z42.900
;TYPE:WALL-INNER
G1 F2400 E3186.94251
G1 F2700 X49.342 Y73.675 E3188.28954
G1 X49.342 Y66.082 E3188.76306
G1 X70.942 Y66.082 E3190.11010
G1 X70.942 Y73.675 E3190.58362
G0 F6900 X71.442 Y74.175
;TYPE:WALL-OUTER
G1 F2700 X48.842 Y74.175 E3191.99302
G1 X48.842 Y65.582 E3192.52890
G1 X71.442 Y65.582 E3193.93830
G1 X71.442 Y74.175 E3194.47418
G0 F6900 X71.092 Y73.915
G0 X70.791 Y71.970
;TYPE:FILL
G1 F4500 X65.053 Y66.231 E3194.98028
G0 F6900 X62.697 Y66.231
G1 F4500 X69.285 Y72.819 E3195.56131
G0 F6900 X66.929 Y72.819
G1 F4500 X60.341 Y66.231 E3196.14233
G0 F6900 X57.985 Y66.231
G1 F4500 X64.573 Y72.819 E3196.72336
G0 F6900 X62.217 Y72.819
G1 F4500 X55.629 Y66.231 E3197.30438
G0 F6900 X53.273 Y66.231
G1 F4500 X59.861 Y72.819 E3197.88540
G0 F6900 X57.505 Y72.819
G1 F4500 X50.917 Y66.231 E3198.46643
G0 F6900 X49.491 Y67.162
G1 F4500 X55.149 Y72.819 E3198.96539
G0 F6900 X52.793 Y72.819
G1 F4500 X49.491 Y69.518 E3199.25656
G0 F6900 X49.491 Y71.874
G1 F4500 X50.437 Y72.819 E3199.33995
G0 F6900 X67.409 Y66.231
G1 F4500 X70.791 Y69.613 E3199.63822
G0 F6900 X70.791 Y67.257
G1 F4500 X69.765 Y66.231 E3199.72871
G0 F6900 X69.645 Y72.120
;TYPE:SKIN
G1 F2700 X70.791 Y73.266 E3199.82978
G0 F6900 X70.342 Y73.524
G1 F2700 X68.938 Y72.120 E3199.95360
G0 F6900 X68.231 Y72.120
G1 F2700 X69.635 Y73.524 E3200.07743
G0 F6900 X68.928 Y73.524
G1 F2700 X67.524 Y72.120 E3200.20125
G0 F6900 X66.817 Y72.120
G1 F2700 X68.220 Y73.524 E3200.32503
G0 F6900 X67.513 Y73.524
G1 F2700 X66.110 Y72.120 E3200.44881
G0 F6900 X65.403 Y72.120
G1 F2700 X66.806 Y73.524 E3200.57259
G0 F6900 X66.099 Y73.524
G1 F2700 X64.696 Y72.120 E3200.69637
G0 F6900 X63.988 Y72.120
G1 F2700 X65.392 Y73.524 E3200.82020
G0 F6900 X64.685 Y73.524
G1 F2700 X63.281 Y72.120 E3200.94402
G0 F6900 X62.574 Y72.120
G1 F2700 X63.978 Y73.524 E3201.06785
G0 F6900 X63.271 Y73.524
G1 F2700 X61.867 Y72.120 E3201.19167
G0 F6900 X61.160 Y72.120
G1 F2700 X62.564 Y73.524 E3201.31550
G0 F6900 X61.856 Y73.524
G1 F2700 X60.453 Y72.120 E3201.43928
G0 F6900 X59.746 Y72.120
G1 F2700 X61.149 Y73.524 E3201.56306
G0 F6900 X60.442 Y73.524
G1 F2700 X59.039 Y72.120 E3201.68684
G0 F6900 X58.332 Y72.120
G1 F2700 X59.735 Y73.524 E3201.81062
G0 F6900 X59.028 Y73.524
G1 F2700 X57.624 Y72.120 E3201.93445
G0 F6900 X56.917 Y72.120
G1 F2700 X58.321 Y73.524 E3202.05827
G0 F6900 X57.614 Y73.524
G1 F2700 X56.210 Y72.120 E3202.18209
G0 F6900 X55.503 Y72.120
G1 F2700 X56.907 Y73.524 E3202.30592
G0 F6900 X56.200 Y73.524
G1 F2700 X54.796 Y72.120 E3202.42974
G0 F6900 X54.089 Y72.120
G1 F2700 X55.493 Y73.524 E3202.55357
G0 F6900 X54.785 Y73.524
G1 F2700 X53.382 Y72.120 E3202.67735
G0 F6900 X52.675 Y72.120
G1 F2700 X54.078 Y73.524 E3202.80113
G0 F6900 X53.371 Y73.524
G1 F2700 X51.968 Y72.120 E3202.92491
G0 F6900 X51.260 Y72.120
G1 F2700 X52.664 Y73.524 E3203.04874
G0 F6900 X51.957 Y73.524
G1 F2700 X50.553 Y72.120 E3203.17256
G0 F6900 X49.846 Y72.120
G1 F2700 X51.250 Y73.524 E3203.29638
G0 F6900 X50.543 Y73.524
G1 F2700 X49.491 Y72.472 E3203.38917
G0 F6900 X49.491 Y73.179
G1 F2700 X49.836 Y73.524 E3203.41959
G0 F6900 X70.352 Y72.120
G1 F2700 X70.791 Y72.559 E3203.45831
G1 F2400 E3199.45831
G0 F6900 X70.942 Y84.173
;TYPE:WALL-INNER
G1 F2400 E3203.45831
G1 F2700 X70.942 Y113.917 E3205.31323
G1 X49.342 Y113.917 E3206.66026
G1 X49.342 Y84.173 E3208.51518
G1 X70.942 Y84.173 E3209.86222
G0 F6900 X71.442 Y83.673
;TYPE:WALL-OUTER
G1 F2700 X71.442 Y114.417 E3211.77950
G1 X48.842 Y114.417 E3213.18889
G1 X48.842 Y83.673 E3215.10618
G1 X71.442 Y83.673 E3216.51557
G0 F6900 X71.092 Y83.933
G0 X69.772 Y85.086
;TYPE:FILL
G1 F4500 X70.791 Y86.106 E3216.60549
G0 F6900 X70.791 Y88.462
G1 F4500 X67.416 Y85.086 E3216.90319
G0 F6900 X65.060 Y85.086
G1 F4500 X70.791 Y90.818 E3217.40867
G0 F6900 X70.791 Y93.174
G1 F4500 X62.704 Y85.086 E3218.12194
G0 F6900 X60.348 Y85.086
G1 F4500 X70.791 Y95.530 E3219.04300
G0 F6900 X70.791 Y97.886
G1 F4500 X57.991 Y85.086 E3220.17189
G0 F6900 X55.635 Y85.086
G1 F4500 X70.791 Y100.242 E3221.50856
G0 F6900 X70.791 Y102.599
G1 F4500 X53.279 Y85.086 E3223.05306
G0 F6900 X50.923 Y85.086
G1 F4500 X70.791 Y104.955 E3224.80535
G0 F6900 X70.791 Y107.311
G1 F4500 X49.491 Y86.011 E3226.68389
G0 F6900 X49.491 Y88.367
G1 F4500 X70.791 Y109.667 E3228.56242
G0 F6900 X70.791 Y112.023
G1 F4500 X49.491 Y90.723 E3230.44096
G0 F6900 X49.491 Y93.079
G1 F4500 X70.178 Y113.765 E3232.26539
G0 F6900 X67.822 Y113.765
G1 F4500 X49.491 Y95.435 E3233.88204
G0 F6900 X49.491 Y97.791
G1 F4500 X65.466 Y113.765 E3235.29089
G0 F6900 X63.109 Y113.765
G1 F4500 X49.491 Y100.147 E3236.49192
G0 F6900 X49.491 Y102.503
G1 F4500 X60.753 Y113.765 E3237.48517
G0 F6900 X58.397 Y113.765
G1 F4500 X49.491 Y104.859 E3238.27063
G0 F6900 X49.491 Y107.215
G1 F4500 X56.041 Y113.765 E3238.84830
G0 F6900 X53.685 Y113.765
G1 F4500 X49.491 Y109.571 E3239.21818
G0 F6900 X49.491 Y111.927
G1 F4500 X51.329 Y113.765 E3239.38029
G0 F6900 X51.491 Y85.786
;TYPE:SKIN
G1 F2700 X50.027 Y84.322 E3239.50940
G0 F6900 X49.491 Y84.493
G1 F2700 X50.784 Y85.786 E3239.62344
G0 F6900 X50.077 Y85.786
G1 F2700 X49.491 Y85.200 E3239.67512
G0 F6900 X50.734 Y84.322
G1 F2700 X52.198 Y85.786 E3239.80424
G0 F6900 X52.905 Y85.786
G1 F2700 X51.442 Y84.322 E3239.93331
G0 F6900 X52.149 Y84.322
G1 F2700 X53.612 Y85.786 E3240.06238
G0 F6900 X54.319 Y85.786
G1 F2700 X52.856 Y84.322 E3240.19145
G0 F6900 X53.563 Y84.322
G1 F2700 X55.027 Y85.786 E3240.32057
G0 F6900 X55.734 Y85.786
G1 F2700 X54.270 Y84.322 E3240.44969
G0 F6900 X54.977 Y84.322
G1 F2700 X56.441 Y85.786 E3240.57880
G0 F6900 X57.148 Y85.786
G1 F2700 X55.684 Y84.322 E3240.70792
G0 F6900 X56.391 Y84.322
G1 F2700 X57.855 Y85.786 E3240.83703
G0 F6900 X58.562 Y85.786
G1 F2700 X57.098 Y84.322 E3240.96615
G0 F6900 X57.805 Y84.322
G1 F2700 X59.269 Y85.786 E3241.09527
G0 F6900 X59.976 Y85.786
G1 F2700 X58.513 Y84.322 E3241.22434
G0 F6900 X59.220 Y84.322
G1 F2700 X60.683 Y85.786 E3241.35341
G0 F6900 X61.391 Y85.786
G1 F2700 X59.927 Y84.322 E3241.48253
G0 F6900 X60.634 Y84.322
G1 F2700 X62.098 Y85.786 E3241.61164
G0 F6900 X62.805 Y85.786
G1 F2700 X61.341 Y84.322 E3241.74076
G0 F6900 X62.048 Y84.322
G1 F2700 X63.512 Y85.786 E3241.86988
G0 F6900 X64.219 Y85.786
G1 F2700 X62.755 Y84.322 E3241.99899
G0 F6900 X63.462 Y84.322
G1 F2700 X64.926 Y85.786 E3242.12811
G0 F6900 X65.633 Y85.786
G1 F2700 X64.169 Y84.322 E3242.25723
G0 F6900 X64.877 Y84.322
G1 F2700 X66.340 Y85.786 E3242.38630
G0 F6900 X67.047 Y85.786
G1 F2700 X65.584 Y84.322 E3242.51537
G0 F6900 X66.291 Y84.322
G1 F2700 X67.754 Y85.786 E3242.64444
G0 F6900 X68.462 Y85.786
G1 F2700 X66.998 Y84.322 E3242.77356
G0 F6900 X67.705 Y84.322
G1 F2700 X69.169 Y85.786 E3242.90268
G0 F6900 X69.876 Y85.786
G1 F2700 X68.412 Y84.322 E3243.03179
G0 F6900 X69.119 Y84.322
G1 F2700 X70.583 Y85.786 E3243.16091
G0 F6900 X70.791 Y85.287
G1 F2700 X69.826 Y84.322 E3243.24602
G0 F6900 X70.533 Y84.322
G1 F2700 X70.791 Y84.580 E3243.26877
G1 F2400 E3239.26877
G0 F6900 X148.007 Y96.986
;TYPE:WALL-INNER
G1 F2400 E3243.26877
G1 F2700 X149.990 Y96.985 E3243.39244
G1 X151.157 Y96.988 E3243.46521
G1 X151.157 Y84.173 E3244.26439
G1 X170.657 Y84.172 E3245.48047
G1 X170.657 Y104.745 E3246.76345
G1 X148.007 Y104.745 E3248.17597
G1 X148.007 Y96.986 E3248.65984
G0 F6900 X151.048 Y96.878
G0 X151.007 Y96.486
G0 X150.657 Y96.486
;TYPE:WALL-OUTER
G1 F2700 X150.657 Y83.673 E3249.45890
G1 X171.157 Y83.672 E3250.73733
G1 X171.157 Y105.245 E3252.08269
G1 X147.507 Y105.245 E3253.55756
G1 X147.507 Y96.486 E3254.10380
G1 X150.657 Y96.486 E3254.30024
G0 F6900 X150.149 Y97.137
;TYPE:FILL
G1 F4500 X155.466 Y102.454 E3254.76917
G0 F6900 X153.110 Y102.454
G1 F4500 X148.156 Y97.500 E3255.20609
G0 F6900 X148.156 Y99.856
G1 F4500 X150.754 Y102.454 E3255.43521
G0 F6900 X148.398 Y102.454
G1 F4500 X148.156 Y102.212 E3255.45656
G0 F6900 X151.048 Y96.878
G0 X151.306 Y95.938
G1 F4500 X157.822 Y102.454 E3256.03123
G0 F6900 X160.178 Y102.454
G1 F4500 X151.306 Y93.582 E3256.81369
G0 F6900 X151.306 Y91.225
G1 F4500 X162.534 Y102.454 E3257.80398
G0 F6900 X164.890 Y102.454
G1 F4500 X151.306 Y88.869 E3259.00205
G0 F6900 X151.306 Y86.513
G1 F4500 X167.247 Y102.454 E3260.40796
G0 F6900 X169.603 Y102.454
G1 F4500 X152.235 Y85.086 E3261.93972
G0 F6900 X154.591 Y85.086
G1 F4500 X170.506 Y101.002 E3263.34337
G0 F6900 X170.506 Y98.646
G1 F4500 X156.947 Y85.086 E3264.53924
G0 F6900 X159.303 Y85.086
G1 F4500 X170.506 Y96.290 E3265.52733
G0 F6900 X170.506 Y93.934
G1 F4500 X161.659 Y85.086 E3266.30763
G0 F6900 X164.015 Y85.086
G1 F4500 X170.506 Y91.578 E3266.88014
G0 F6900 X170.506 Y89.222
G1 F4500 X166.371 Y85.086 E3267.24487
G0 F6900 X168.727 Y85.086
G1 F4500 X170.506 Y86.865 E3267.40176
G0 F6900 X170.286 Y85.786
;TYPE:SKIN
G1 F2700 X168.822 Y84.323 E3267.53084
G0 F6900 X168.115 Y84.323
G1 F2700 X169.579 Y85.786 E3267.65991
G0 F6900 X168.871 Y85.786
G1 F2700 X167.408 Y84.323 E3267.78894
G0 F6900 X166.701 Y84.323
G1 F2700 X168.164 Y85.786 E3267.91796
G0 F6900 X167.457 Y85.786
G1 F2700 X165.994 Y84.323 E3268.04699
G0 F6900 X165.286 Y84.323
G1 F2700 X166.750 Y85.786 E3268.17606
G0 F6900 X166.043 Y85.786
G1 F2700 X164.579 Y84.323 E3268.30514
G0 F6900 X163.872 Y84.323
G1 F2700 X165.336 Y85.786 E3268.43421
G0 F6900 X164.629 Y85.786
G1 F2700 X163.165 Y84.323 E3268.56328
G0 F6900 X162.458 Y84.323
G1 F2700 X163.922 Y85.786 E3268.69235
G0 F6900 X163.215 Y85.786
G1 F2700 X161.751 Y84.323 E3268.82143
G0 F6900 X161.044 Y84.323
G1 F2700 X162.507 Y85.786 E3268.95045
G0 F6900 X161.800 Y85.786
G1 F2700 X160.337 Y84.323 E3269.07948
G0 F6900 X159.630 Y84.323
G1 F2700 X161.093 Y85.786 E3269.20851
G0 F6900 X160.386 Y85.786
G1 F2700 X158.922 Y84.323 E3269.33758
G0 F6900 X158.215 Y84.323
G1 F2700 X159.679 Y85.786 E3269.46666
G0 F6900 X158.972 Y85.786
G1 F2700 X157.508 Y84.323 E3269.59573
G0 F6900 X156.801 Y84.323
G1 F2700 X158.265 Y85.786 E3269.72480
G0 F6900 X157.558 Y85.786
G1 F2700 X156.094 Y84.323 E3269.85387
G0 F6900 X155.387 Y84.323
G1 F2700 X156.851 Y85.786 E3269.98294
G0 F6900 X156.144 Y85.786
G1 F2700 X154.680 Y84.323 E3270.11202
G0 F6900 X153.973 Y84.323
G1 F2700 X155.436 Y85.786 E3270.24105
G0 F6900 X154.729 Y85.786
G1 F2700 X153.266 Y84.323 E3270.37007
G0 F6900 X152.558 Y84.323
G1 F2700 X154.022 Y85.786 E3270.49915
G0 F6900 X153.315 Y85.786
G1 F2700 X151.851 Y84.323 E3270.62822
G0 F6900 X151.306 Y84.484
G1 F2700 X152.608 Y85.786 E3270.74305
G0 F6900 X151.901 Y85.786
G1 F2700 X151.306 Y85.191 E3270.79552
G0 F6900 X151.048 Y96.878
G0 X150.524 Y97.138
G1 F2700 X150.809 Y97.776 E3270.85182
G1 X149.781 Y97.456 E3270.90809
G1 X149.074 Y97.454 E3270.96426
G1 X148.278 Y97.367 E3271.02049
G1 X148.330 Y97.772 E3271.04595
G0 F6900 X148.777 Y101.754
G1 F2700 X151.617 Y104.595 E3271.29647
G0 F6900 X152.324 Y104.595
G1 F2700 X149.484 Y101.754 E3271.54699
G0 F6900 X150.191 Y101.754
G1 F2700 X153.032 Y104.595 E3271.79755
G0 F6900 X153.739 Y104.595
G1 F2700 X150.898 Y101.754 E3272.04810
G0 F6900 X151.605 Y101.754
G1 F2700 X154.446 Y104.595 E3272.29866
G0 F6900 X155.153 Y104.595
G1 F2700 X152.312 Y101.754 E3272.54922
G0 F6900 X153.020 Y101.754
G1 F2700 X155.860 Y104.595 E3272.79974
G0 F6900 X156.567 Y104.595
G1 F2700 X153.727 Y101.754 E3273.05026
G0 F6900 X154.434 Y101.754
G1 F2700 X157.274 Y104.595 E3273.30077
G0 F6900 X157.981 Y104.595
G1 F2700 X155.141 Y101.754 E3273.55129
G0 F6900 X155.848 Y101.754
G1 F2700 X158.688 Y104.595 E3273.80180
G0 F6900 X159.396 Y104.595
G1 F2700 X156.555 Y101.754 E3274.05236
G0 F6900 X157.262 Y101.754
G1 F2700 X160.103 Y104.595 E3274.30292
G0 F6900 X160.810 Y104.595
G1 F2700 X157.969 Y101.754 E3274.55348
G0 F6900 X158.676 Y101.754
G1 F2700 X161.517 Y104.595 E3274.80404
G0 F6900 X162.224 Y104.595
G1 F2700 X159.383 Y101.754 E3275.05460
G0 F6900 X150.910 Y104.595
G1 F2700 X148.155 Y101.840 E3275.29758
G0 F6900 X148.155 Y102.547
G1 F2700 X150.203 Y104.595 E3275.47820
G0 F6900 X149.496 Y104.595
G1 F2700 X148.155 Y103.254 E3275.59647
G0 F6900 X148.155 Y103.961
G1 F2700 X148.789 Y104.595 E3275.65238
G0 F6900 X160.091 Y101.754
G1 F2700 X162.931 Y104.595 E3275.90290
G0 F6900 X163.638 Y104.595
G1 F2700 X160.798 Y101.754 E3276.15342
G0 F6900 X161.505 Y101.754
G1 F2700 X164.345 Y104.595 E3276.40393
G0 F6900 X165.052 Y104.595
G1 F2700 X162.212 Y101.754 E3276.65445
G0 F6900 X162.919 Y101.754
G1 F2700 X165.759 Y104.595 E3276.90496
G0 F6900 X166.467 Y104.595
G1 F2700 X163.626 Y101.754 E3277.15552
G0 F6900 X164.333 Y101.754
G1 F2700 X167.174 Y104.595 E3277.40608
G0 F6900 X167.881 Y104.595
G1 F2700 X165.040 Y101.754 E3277.65664
G0 F6900 X165.747 Y101.754
G1 F2700 X168.588 Y104.595 E3277.90720
G0 F6900 X169.295 Y104.595
G1 F2700 X166.455 Y101.754 E3278.15772
G0 F6900 X167.162 Y101.754
G1 F2700 X170.002 Y104.595 E3278.40823
G0 F6900 X170.506 Y104.392
G1 F2700 X167.869 Y101.754 E3278.64085
G0 F6900 X168.576 Y101.754
G1 F2700 X170.506 Y103.685 E3278.81110
G0 F6900 X170.506 Y102.978
G1 F2700 X169.283 Y101.754 E3278.91901
G0 F6900 X169.990 Y101.754
G1 F2700 X170.506 Y102.270 E3278.96452
G0 F6900 X170.506 Y85.300
G1 F2700 X169.529 Y84.323 E3279.05068
G0 F6900 X170.236 Y84.323
G1 F2700 X170.506 Y84.593 E3279.07450
G1 F2400 E3275.07450
G0 F6900 X170.657 Y73.675
;TYPE:WALL-INNER
G1 F2400 E3279.07450
G1 F2700 X151.157 Y73.676 E3280.29057
G1 X151.157 Y66.082 E3280.76415
G1 X170.657 Y66.082 E3281.98023
G1 X170.657 Y73.675 E3282.45375
G0 F6900 X171.157 Y74.175
;TYPE:WALL-OUTER
G1 F2700 X150.657 Y74.176 E3283.73218
G1 X150.657 Y65.582 E3284.26813
G1 X171.157 Y65.582 E3285.54657
G1 X171.157 Y74.175 E3286.08245
G0 F6900 X170.807 Y73.915
G0 X170.506 Y72.728
;TYPE:FILL
G1 F4500 X164.009 Y66.231 E3286.65545
G0 F6900 X161.653 Y66.231
G1 F4500 X168.241 Y72.820 E3287.23651
G0 F6900 X165.885 Y72.820
G1 F4500 X159.297 Y66.231 E3287.81758
G0 F6900 X156.940 Y66.231
G1 F4500 X163.529 Y72.820 E3288.39869
G0 F6900 X161.173 Y72.820
G1 F4500 X154.584 Y66.231 E3288.97981
G0 F6900 X152.228 Y66.231
G1 F4500 X158.818 Y72.821 E3289.56101
G0 F6900 X156.462 Y72.821
G1 F4500 X151.306 Y67.665 E3290.01574
G0 F6900 X151.306 Y70.021
G1 F4500 X154.106 Y72.821 E3290.26268
G0 F6900 X151.750 Y72.821
G1 F4500 X151.306 Y72.378 E3290.30179
G0 F6900 X166.365 Y66.231
G1 F4500 X170.506 Y70.372 E3290.66701
G0 F6900 X170.506 Y68.016
G1 F4500 X168.721 Y66.231 E3290.82443
G0 F6900 X168.641 Y72.121
;TYPE:SKIN
G1 F2700 X170.045 Y73.524 E3290.94821
G0 F6900 X170.506 Y73.278
G1 F2700 X169.348 Y72.121 E3291.05030
G0 F6900 X170.055 Y72.121
G1 F2700 X170.506 Y72.571 E3291.09003
G0 F6900 X169.337 Y73.524
G1 F2700 X167.934 Y72.121 E3291.21377
G0 F6900 X167.227 Y72.121
G1 F2700 X168.630 Y73.524 E3291.33750
G0 F6900 X167.923 Y73.524
G1 F2700 X166.520 Y72.121 E3291.46124
G0 F6900 X165.813 Y72.121
G1 F2700 X167.216 Y73.524 E3291.58498
G0 F6900 X166.509 Y73.524
G1 F2700 X165.105 Y72.121 E3291.70876
G0 F6900 X164.398 Y72.121
G1 F2700 X165.802 Y73.524 E3291.83254
G0 F6900 X165.095 Y73.524
G1 F2700 X163.691 Y72.121 E3291.95632
G0 F6900 X162.984 Y72.121
G1 F2700 X164.388 Y73.524 E3292.08010
G0 F6900 X163.681 Y73.524
G1 F2700 X162.277 Y72.121 E3292.20388
G0 F6900 X161.570 Y72.121
G1 F2700 X162.973 Y73.524 E3292.32762
G0 F6900 X162.266 Y73.524
G1 F2700 X160.863 Y72.122 E3292.45131
G0 F6900 X160.156 Y72.122
G1 F2700 X161.559 Y73.524 E3292.57500
G0 F6900 X160.852 Y73.524
G1 F2700 X159.449 Y72.122 E3292.69869
G0 F6900 X158.742 Y72.122
G1 F2700 X160.145 Y73.524 E3292.82239
G0 F6900 X159.438 Y73.524
G1 F2700 X158.035 Y72.122 E3292.94608
G0 F6900 X157.328 Y72.122
G1 F2700 X158.731 Y73.524 E3293.06977
G0 F6900 X158.024 Y73.524
G1 F2700 X156.621 Y72.122 E3293.19346
G0 F6900 X155.914 Y72.122
G1 F2700 X157.317 Y73.524 E3293.31716
G0 F6900 X156.610 Y73.524
G1 F2700 X155.207 Y72.122 E3293.44085
G0 F6900 X154.500 Y72.122
G1 F2700 X155.902 Y73.524 E3293.56450
