;Generated with Cura_SteamEngine 15.01
; Default start code
G28 ; Home extruder
G1 Z15 F1000
M107 ; Turn off fan
G90 ; Absolute positioning
M82 ; Extruder in absolute mode
M140 S80
; Activate all used extruder
M104 T0 S260
G92 E0 ; Reset extruder position
; Wait for all used extruders to reach temperature
M109 T0 S260
;Layer count: 46
;LAYER:0
M107
G0 F9000 X36.784 Y56.915 Z0.400
;TYPE:SKIRT
G1 F1800 X183.184 Y56.915 E12.17321
G1 X183.184 Y72.105 E13.43626
G1 X183.193 Y98.234 E15.60890
G1 X183.214 Y98.234 E15.61064
G1 X183.214 Y123.084 E17.67693
G1 X36.784 Y123.084 E29.85263
G1 X36.784 Y56.915 E35.35461
G1 F2400 E31.35461
G0 F9000 X40.784 Y60.915
;TYPE:WALL-INNER
G1 F2400 E35.35461
G1 F1800 X179.184 Y60.915 E46.86262
G1 X179.194 Y100.934 E50.19021
G1 X179.196 Y102.234 E50.29830
G1 X179.214 Y102.234 E50.29980
G1 X179.214 Y119.084 E51.70088
G1 X40.784 Y119.084 E63.21139
G1 X40.784 Y60.915 E68.04816
G0 F9000 X40.284 Y60.415
;TYPE:WALL-OUTER
G1 F1800 X179.684 Y60.415 E79.63931
G1 X179.695 Y101.734 E83.07500
G1 X179.714 Y101.734 E83.07658
G1 X179.714 Y119.584 E84.56082
G1 X40.284 Y119.584 E96.15447
G1 X40.284 Y60.415 E101.07439
G0 F9000 X40.959 Y61.111
;TYPE:SKIN
G1 F1800 X98.755 Y118.907 E107.87076
G0 F9000 X98.048 Y118.907
G1 F1800 X40.959 Y61.818 E114.58399
G0 F9000 X40.959 Y62.525
G1 F1800 X97.341 Y118.907 E121.21408
G0 F9000 X96.633 Y118.907
G1 F1800 X40.959 Y63.233 E127.76091
G0 F9000 X40.959 Y63.940
G1 F1800 X95.926 Y118.907 E134.22461
G0 F9000 X95.219 Y118.907
G1 F1800 X40.959 Y64.647 E140.60517
G0 F9000 X40.959 Y65.354
G1 F1800 X94.512 Y118.907 E146.90259
G0 F9000 X93.805 Y118.907
G1 F1800 X40.959 Y66.061 E153.11688
G0 F9000 X40.959 Y66.768
G1 F1800 X93.098 Y118.907 E159.24802
G0 F9000 X92.391 Y118.907
G1 F1800 X40.959 Y67.475 E165.29603
G0 F9000 X40.959 Y68.182
G1 F1800 X91.684 Y118.907 E171.26091
G0 F9000 X90.977 Y118.907
G1 F1800 X40.959 Y68.889 E177.14264
G0 F9000 X40.959 Y69.596
G1 F1800 X90.269 Y118.907 E182.94118
G0 F9000 X89.562 Y118.907
G1 F1800 X40.959 Y70.304 E188.65652
G0 F9000 X40.959 Y71.011
G1 F1800 X88.855 Y118.907 E194.28872
G0 F9000 X88.148 Y118.907
G1 F1800 X40.959 Y71.718 E199.83778
G0 F9000 X40.959 Y72.425
G1 F1800 X87.441 Y118.907 E205.30371
G0 F9000 X86.734 Y118.907
G1 F1800 X40.959 Y73.132 E210.68650
G0 F9000 X40.959 Y73.839
G1 F1800 X86.027 Y118.907 E215.98615
G0 F9000 X85.320 Y118.907
G1 F1800 X40.959 Y74.546 E221.20266
G0 F9000 X40.959 Y75.253
G1 F1800 X84.613 Y118.907 E226.33604
G0 F9000 X83.905 Y118.907
G1 F1800 X40.959 Y75.960 E231.38622
G0 F9000 X40.959 Y76.668
G1 F1800 X83.198 Y118.907 E236.35320
G0 F9000 X82.491 Y118.907
G1 F1800 X40.959 Y77.375 E241.23705
G0 F9000 X40.959 Y78.082
G1 F1800 X81.784 Y118.907 E246.03775
G0 F9000 X81.077 Y118.907
G1 F1800 X40.959 Y78.789 E250.75532
G0 F9000 X40.959 Y79.496
G1 F1800 X80.370 Y118.907 E255.38975
G0 F9000 X99.462 Y118.907
G1 F1800 X41.644 Y61.089 E262.18871
G0 F9000 X42.351 Y61.089
G1 F1800 X100.169 Y118.907 E268.98766
G0 F9000 X100.876 Y118.907
G1 F1800 X43.058 Y61.089 E275.78662
G0 F9000 X43.765 Y61.089
G1 F1800 X101.583 Y118.907 E282.58557
G0 F9000 X102.290 Y118.907
G1 F1800 X44.472 Y61.089 E289.38452
G0 F9000 X45.179 Y61.089
G1 F1800 X102.997 Y118.907 E296.18348
G0 F9000 X103.704 Y118.907
G1 F1800 X45.886 Y61.089 E302.98243
G0 F9000 X46.594 Y61.089
G1 F1800 X104.412 Y118.907 E309.78138
G0 F9000 X105.119 Y118.907
G1 F1800 X47.301 Y61.089 E316.58034
G0 F9000 X48.008 Y61.089
G1 F1800 X105.826 Y118.907 E323.37929
G0 F9000 X106.533 Y118.907
G1 F1800 X48.715 Y61.089 E330.17824
G0 F9000 X49.422 Y61.089
G1 F1800 X107.240 Y118.907 E336.97720
G0 F9000 X107.947 Y118.907
G1 F1800 X50.129 Y61.089 E343.77615
G0 F9000 X50.836 Y61.089
G1 F1800 X108.654 Y118.907 E350.57511
G0 F9000 X109.361 Y118.907
G1 F1800 X51.543 Y61.089 E357.37406
G0 F9000 X52.250 Y61.089
G1 F1800 X110.069 Y118.908 E364.17313
G0 F9000 X110.776 Y118.908
G1 F1800 X52.958 Y61.089 E370.97214
G0 F9000 X53.665 Y61.089
G1 F1800 X111.483 Y118.908 E377.77115
G0 F9000 X112.190 Y118.908
G1 F1800 X54.372 Y61.089 E384.57017
G0 F9000 X55.079 Y61.089
G1 F1800 X112.898 Y118.908 E391.36924
G0 F9000 X113.605 Y118.908
G1 F1800 X55.786 Y61.089 E398.16831
G0 F9000 X56.493 Y61.089
G1 F1800 X114.312 Y118.908 E404.96738
G0 F9000 X115.019 Y118.908
G1 F1800 X57.200 Y61.089 E411.76645
G0 F9000 X57.907 Y61.089
G1 F1800 X115.726 Y118.908 E418.56552
G0 F9000 X116.433 Y118.908
G1 F1800 X58.614 Y61.089 E425.36459
G0 F9000 X59.322 Y61.089
G1 F1800 X117.140 Y118.908 E432.16361
G0 F9000 X117.847 Y118.908
G1 F1800 X60.029 Y61.089 E438.96262
G0 F9000 X60.736 Y61.089
G1 F1800 X118.554 Y118.908 E445.76163
G0 F9000 X119.262 Y118.908
G1 F1800 X61.443 Y61.089 E452.56070
G0 F9000 X62.150 Y61.089
G1 F1800 X119.969 Y118.908 E459.35977
G0 F9000 X120.676 Y118.908
G1 F1800 X62.857 Y61.089 E466.15885
G0 F9000 X63.564 Y61.089
G1 F1800 X121.383 Y118.908 E472.95792
G0 F9000 X122.090 Y118.908
G1 F1800 X64.271 Y61.089 E479.75699
G0 F9000 X64.978 Y61.089
G1 F1800 X122.797 Y118.908 E486.55606
G0 F9000 X123.504 Y118.908
G1 F1800 X65.685 Y61.089 E493.35513
G0 F9000 X66.393 Y61.089
G1 F1800 X124.211 Y118.908 E500.15414
G0 F9000 X124.918 Y118.908
G1 F1800 X67.100 Y61.089 E506.95316
G0 F9000 X67.807 Y61.089
G1 F1800 X125.626 Y118.908 E513.75223
G0 F9000 X126.333 Y118.908
G1 F1800 X68.514 Y61.089 E520.55130
G0 F9000 X69.221 Y61.089
G1 F1800 X127.040 Y118.908 E527.35037
G0 F9000 X127.747 Y118.908
G1 F1800 X69.928 Y61.089 E534.14944
G0 F9000 X70.635 Y61.089
G1 F1800 X128.454 Y118.908 E540.94851
G0 F9000 X129.161 Y118.908
G1 F1800 X71.342 Y61.089 E547.74758
G0 F9000 X72.049 Y61.089
G1 F1800 X129.868 Y118.908 E554.54665
G0 F9000 X130.575 Y118.908
G1 F1800 X72.757 Y61.089 E561.34567
G0 F9000 X73.464 Y61.089
G1 F1800 X131.282 Y118.908 E568.14468
G0 F9000 X131.989 Y118.908
G1 F1800 X74.171 Y61.089 E574.94369
G0 F9000 X74.878 Y61.089
G1 F1800 X132.697 Y118.908 E581.74276
G0 F9000 X133.404 Y118.908
G1 F1800 X75.585 Y61.089 E588.54183
G0 F9000 X76.292 Y61.089
G1 F1800 X134.111 Y118.908 E595.34091
G0 F9000 X134.818 Y118.908
G1 F1800 X76.999 Y61.089 E602.13998
G0 F9000 X77.706 Y61.089
G1 F1800 X135.525 Y118.908 E608.93905
G0 F9000 X136.232 Y118.908
G1 F1800 X78.413 Y61.089 E615.73812
G0 F9000 X79.121 Y61.089
G1 F1800 X136.939 Y118.908 E622.53713
G0 F9000 X137.646 Y118.908
G1 F1800 X79.828 Y61.089 E629.33614
G0 F9000 X80.535 Y61.089
G1 F1800 X138.353 Y118.908 E636.13516
G0 F9000 X139.061 Y118.908
G1 F1800 X81.242 Y61.089 E642.93423
G0 F9000 X81.949 Y61.089
G1 F1800 X139.768 Y118.908 E649.73330
G0 F9000 X140.475 Y118.908
G1 F1800 X82.656 Y61.089 E656.53237
G0 F9000 X83.363 Y61.089
G1 F1800 X141.182 Y118.908 E663.33144
G0 F9000 X141.889 Y118.908
G1 F1800 X84.070 Y61.089 E670.13051
G0 F9000 X84.777 Y61.089
G1 F1800 X142.596 Y118.908 E676.92958
G0 F9000 X143.303 Y118.908
G1 F1800 X85.484 Y61.089 E683.72865
G0 F9000 X86.192 Y61.089
G1 F1800 X144.010 Y118.908 E690.52767
G0 F9000 X144.717 Y118.908
G1 F1800 X86.899 Y61.089 E697.32668
G0 F9000 X87.606 Y61.089
G1 F1800 X145.424 Y118.908 E704.12569
G0 F9000 X146.132 Y118.908
G1 F1800 X88.313 Y61.089 E710.92476
G0 F9000 X89.020 Y61.089
G1 F1800 X146.839 Y118.908 E717.72383
G0 F9000 X147.546 Y118.908
G1 F1800 X89.727 Y61.089 E724.52291
G0 F9000 X90.434 Y61.089
G1 F1800 X148.253 Y118.908 E731.32198
G0 F9000 X148.960 Y118.908
G1 F1800 X91.141 Y61.089 E738.12105
G0 F9000 X91.848 Y61.089
G1 F1800 X149.667 Y118.908 E744.92012
G0 F9000 X150.374 Y118.908
G1 F1800 X92.556 Y61.089 E751.71913
G0 F9000 X93.263 Y61.089
G1 F1800 X151.081 Y118.908 E758.51814
G0 F9000 X151.788 Y118.908
G1 F1800 X93.970 Y61.089 E765.31716
G0 F9000 X94.677 Y61.089
G1 F1800 X152.496 Y118.908 E772.11623
G0 F9000 X153.203 Y118.908
G1 F1800 X95.384 Y61.089 E778.91530
G0 F9000 X96.091 Y61.089
G1 F1800 X153.910 Y118.908 E785.71437
G0 F9000 X154.617 Y118.908
G1 F1800 X96.798 Y61.089 E792.51344
G0 F9000 X97.505 Y61.089
G1 F1800 X155.324 Y118.908 E799.31251
G0 F9000 X156.031 Y118.908
G1 F1800 X98.212 Y61.089 E806.11158
G0 F9000 X98.919 Y61.089
G1 F1800 X156.738 Y118.908 E812.91066
G0 F9000 X157.445 Y118.908
G1 F1800 X99.627 Y61.089 E819.70967
G0 F9000 X100.334 Y61.089
G1 F1800 X158.152 Y118.908 E826.50868
G0 F9000 X158.860 Y118.908
G1 F1800 X101.041 Y61.089 E833.30775
G0 F9000 X101.748 Y61.089
G1 F1800 X159.567 Y118.908 E840.10682
G0 F9000 X160.274 Y118.908
G1 F1800 X102.455 Y61.089 E846.90589
G0 F9000 X103.162 Y61.089
G1 F1800 X160.981 Y118.908 E853.70496
G0 F9000 X161.688 Y118.908
G1 F1800 X103.869 Y61.089 E860.50404
G0 F9000 X104.576 Y61.089
G1 F1800 X162.395 Y118.908 E867.30311
G0 F9000 X163.102 Y118.908
G1 F1800 X105.283 Y61.089 E874.10218
G0 F9000 X105.991 Y61.089
G1 F1800 X163.809 Y118.908 E880.90119
G0 F9000 X164.516 Y118.908
G1 F1800 X106.698 Y61.089 E887.70020
G0 F9000 X107.405 Y61.089
G1 F1800 X165.223 Y118.908 E894.49922
G0 F9000 X165.931 Y118.908
G1 F1800 X108.112 Y61.089 E901.29829
G0 F9000 X108.819 Y61.089
G1 F1800 X166.638 Y118.908 E908.09736
G0 F9000 X167.345 Y118.908
G1 F1800 X109.526 Y61.089 E914.89643
G0 F9000 X110.233 Y61.089
G1 F1800 X168.052 Y118.908 E921.69550
G0 F9000 X168.759 Y118.908
G1 F1800 X110.940 Y61.089 E928.49457
G0 F9000 X111.647 Y61.089
G1 F1800 X169.466 Y118.908 E935.29364
G0 F9000 X170.173 Y118.908
G1 F1800 X112.355 Y61.089 E942.09266
G0 F9000 X113.062 Y61.089
G1 F1800 X170.880 Y118.908 E948.89167
G0 F9000 X171.587 Y118.908
G1 F1800 X113.769 Y61.089 E955.69068
G0 F9000 X114.476 Y61.089
G1 F1800 X172.295 Y118.908 E962.48975
G0 F9000 X173.002 Y118.908
G1 F1800 X115.183 Y61.089 E969.28882
G0 F9000 X115.890 Y61.089
G1 F1800 X173.709 Y118.908 E976.08789
G0 F9000 X174.416 Y118.908
G1 F1800 X116.597 Y61.089 E982.88697
G0 F9000 X117.304 Y61.089
G1 F1800 X175.123 Y118.908 E989.68604
G0 F9000 X175.830 Y118.908
G1 F1800 X118.011 Y61.089 E996.48511
G0 F9000 X118.718 Y61.089
G1 F1800 X176.537 Y118.908 E1003.28418
G0 F9000 X177.244 Y118.908
G1 F1800 X119.426 Y61.089 E1010.08319
G0 F9000 X120.133 Y61.089
G1 F1800 X177.951 Y118.908 E1016.88220
G0 F9000 X178.659 Y118.908
G1 F1800 X120.840 Y61.089 E1023.68128
G0 F9000 X121.547 Y61.089
G1 F1800 X179.038 Y118.581 E1030.44183
G0 F9000 X179.038 Y117.873
G1 F1800 X122.254 Y61.089 E1037.11920
G0 F9000 X122.961 Y61.089
G1 F1800 X179.038 Y117.166 E1043.71342
G0 F9000 X179.038 Y116.459
G1 F1800 X123.668 Y61.089 E1050.22451
G0 F9000 X124.375 Y61.089
G1 F1800 X179.038 Y115.752 E1056.65246
G0 F9000 X179.038 Y115.045
G1 F1800 X125.082 Y61.089 E1062.99727
G0 F9000 X125.790 Y61.089
G1 F1800 X179.038 Y114.338 E1069.25889
G0 F9000 X179.038 Y113.631
G1 F1800 X126.497 Y61.089 E1075.43737
G0 F9000 X127.204 Y61.089
G1 F1800 X179.038 Y112.924 E1081.53271
G0 F9000 X179.038 Y112.217
G1 F1800 X127.911 Y61.089 E1087.54491
G0 F9000 X128.618 Y61.089
G1 F1800 X179.038 Y111.510 E1093.47397
G0 F9000 X179.038 Y110.802
G1 F1800 X129.325 Y61.089 E1099.31984
G0 F9000 X130.032 Y61.089
G1 F1800 X179.038 Y110.095 E1105.08257
G0 F9000 X179.038 Y109.388
G1 F1800 X130.739 Y61.089 E1110.76216
G0 F9000 X131.446 Y61.089
G1 F1800 X179.038 Y108.681 E1116.35862
G0 F9000 X179.038 Y107.974
G1 F1800 X132.154 Y61.089 E1121.87187
G0 F9000 X132.861 Y61.089
G1 F1800 X179.038 Y107.267 E1127.30199
G0 F9000 X179.038 Y106.560
G1 F1800 X133.568 Y61.089 E1132.64898
G0 F9000 X134.275 Y61.089
G1 F1800 X179.038 Y105.853 E1137.91282
G0 F9000 X179.038 Y105.146
G1 F1800 X134.982 Y61.089 E1143.09353
G0 F9000 X135.689 Y61.089
G1 F1800 X179.038 Y104.438 E1148.19104
G0 F9000 X179.038 Y103.731
G1 F1800 X136.396 Y61.089 E1153.20541
G0 F9000 X137.103 Y61.089
G1 F1800 X179.038 Y103.024 E1158.13665
G0 F9000 X179.020 Y102.299
G1 F1800 X137.810 Y61.089 E1162.98263
G0 F9000 X138.517 Y61.089
G1 F1800 X179.020 Y101.592 E1167.74547
G0 F9000 X179.020 Y100.885
G1 F1800 X139.225 Y61.089 E1172.42511
G0 F9000 X139.932 Y61.089
G1 F1800 X179.020 Y100.177 E1177.02156
G0 F9000 X179.019 Y99.470
G1 F1800 X140.639 Y61.089 E1181.53482
G0 F9000 X141.346 Y61.089
G1 F1800 X179.019 Y98.763 E1185.96493
G0 F9000 X179.019 Y98.055
G1 F1800 X142.053 Y61.089 E1190.31185
G0 F9000 X142.760 Y61.089
G1 F1800 X179.018 Y97.348 E1194.57557
G0 F9000 X179.018 Y96.640
G1 F1800 X143.467 Y61.089 E1198.75610
G0 F9000 X144.174 Y61.089
G1 F1800 X179.018 Y95.933 E1202.85348
G0 F9000 X179.018 Y95.226
G1 F1800 X144.881 Y61.089 E1206.86773
G0 F9000 X145.589 Y61.089
G1 F1800 X179.018 Y94.518 E1210.79873
G0 F9000 X179.018 Y93.811
G1 F1800 X146.296 Y61.089 E1214.64658
G0 F9000 X147.003 Y61.089
G1 F1800 X179.018 Y93.104 E1218.41130
G0 F9000 X179.017 Y92.396
G1 F1800 X147.710 Y61.089 E1222.09276
G0 F9000 X148.417 Y61.089
G1 F1800 X179.017 Y91.689 E1225.69109
G0 F9000 X179.017 Y90.982
G1 F1800 X149.124 Y61.089 E1229.20628
G0 F9000 X149.831 Y61.089
G1 F1800 X179.017 Y90.275 E1232.63833
G0 F9000 X179.016 Y89.567
G1 F1800 X150.538 Y61.089 E1235.98712
G0 F9000 X151.245 Y61.089
G1 F1800 X179.016 Y88.860 E1239.25278
G0 F9000 X179.016 Y88.153
G1 F1800 X151.953 Y61.089 E1242.43524
G0 F9000 X152.660 Y61.089
G1 F1800 X179.016 Y87.445 E1245.53450
G0 F9000 X179.016 Y86.738
G1 F1800 X153.367 Y61.089 E1248.55063
G0 F9000 X154.074 Y61.089
G1 F1800 X179.016 Y86.031 E1251.48362
G0 F9000 X179.015 Y85.323
G1 F1800 X154.781 Y61.089 E1254.33335
G0 F9000 X155.488 Y61.089
G1 F1800 X179.015 Y84.616 E1257.09994
G0 F9000 X179.015 Y83.909
G1 F1800 X156.195 Y61.089 E1259.78340
G0 F9000 X156.902 Y61.089
G1 F1800 X179.015 Y83.202 E1262.38372
G0 F9000 X179.014 Y82.494
G1 F1800 X157.609 Y61.089 E1264.90078
G0 F9000 X158.316 Y61.089
G1 F1800 X179.014 Y81.787 E1267.33471
G0 F9000 X179.014 Y81.080
G1 F1800 X159.024 Y61.089 E1269.68544
G0 F9000 X159.731 Y61.089
G1 F1800 X179.013 Y80.372 E1271.95291
G0 F9000 X179.013 Y79.665
G1 F1800 X160.438 Y61.089 E1274.13725
G0 F9000 X161.145 Y61.089
G1 F1800 X179.013 Y78.958 E1276.23845
G0 F9000 X179.013 Y78.251
G1 F1800 X161.852 Y61.089 E1278.25651
G0 F9000 X162.559 Y61.089
G1 F1800 X179.013 Y77.543 E1280.19137
G0 F9000 X179.013 Y76.836
G1 F1800 X163.266 Y61.089 E1282.04310
G0 F9000 X163.973 Y61.089
G1 F1800 X179.013 Y76.129 E1283.81169
G0 F9000 X179.012 Y75.421
G1 F1800 X164.680 Y61.089 E1285.49702
G0 F9000 X165.388 Y61.089
G1 F1800 X179.012 Y74.714 E1287.09916
G0 F9000 X179.012 Y74.007
G1 F1800 X166.095 Y61.089 E1288.61816
G0 F9000 X166.802 Y61.089
G1 F1800 X179.012 Y73.300 E1290.05402
G0 F9000 X179.011 Y72.592
G1 F1800 X167.509 Y61.089 E1291.40663
G0 F9000 X168.216 Y61.089
G1 F1800 X179.011 Y71.885 E1292.67609
G0 F9000 X179.011 Y71.178
G1 F1800 X168.923 Y61.089 E1293.86242
G0 F9000 X169.630 Y61.089
G1 F1800 X179.011 Y70.470 E1294.96556
G0 F9000 X179.011 Y69.763
G1 F1800 X170.337 Y61.089 E1295.98555
G0 F9000 X171.044 Y61.089
G1 F1800 X179.011 Y69.056 E1296.92241
G0 F9000 X179.010 Y68.348
G1 F1800 X171.751 Y61.089 E1297.77601
G0 F9000 X172.459 Y61.089
G1 F1800 X179.010 Y67.641 E1298.54642
G0 F9000 X179.010 Y66.934
G1 F1800 X173.166 Y61.089 E1299.23369
G0 F9000 X173.873 Y61.089
G1 F1800 X179.010 Y66.226 E1299.83776
G0 F9000 X179.009 Y65.519
G1 F1800 X174.580 Y61.089 E1300.35864
G0 F9000 X175.287 Y61.089
G1 F1800 X179.009 Y64.811 E1300.79631
G0 F9000 X179.009 Y64.104
G1 F1800 X175.994 Y61.089 E1301.15086
G0 F9000 X176.701 Y61.089
G1 F1800 X179.009 Y63.397 E1301.42226
G0 F9000 X179.009 Y62.689
G1 F1800 X177.408 Y61.089 E1301.61047
G0 F9000 X178.115 Y61.089
G1 F1800 X179.009 Y61.982 E1301.71553
G0 F9000 X179.009 Y61.275
G1 F1800 X178.823 Y61.089 E1301.73741
G0 F9000 X79.663 Y118.907
G1 F1800 X40.959 Y80.203 E1306.28870
G0 F9000 X40.959 Y80.910
G1 F1800 X78.956 Y118.907 E1310.75686
G0 F9000 X78.249 Y118.907
G1 F1800 X40.959 Y81.617 E1315.14187
G0 F9000 X40.959 Y82.324
G1 F1800 X77.542 Y118.907 E1319.44375
G0 F9000 X76.834 Y118.907
G1 F1800 X40.959 Y83.032 E1323.66238
G0 F9000 X40.959 Y83.739
G1 F1800 X76.127 Y118.907 E1327.79787
G0 F9000 X75.420 Y118.907
G1 F1800 X40.959 Y84.446 E1331.85022
G0 F9000 X40.959 Y85.153
G1 F1800 X74.713 Y118.907 E1335.81943
G0 F9000 X74.006 Y118.907
G1 F1800 X40.959 Y85.860 E1339.70550
G0 F9000 X40.959 Y86.567
G1 F1800 X73.299 Y118.907 E1343.50844
G0 F9000 X72.592 Y118.907
G1 F1800 X40.959 Y87.274 E1347.22824
G0 F9000 X40.959 Y87.981
