;Generated with Cura_SteamEngine 15.01
; Default start code
G28 ; Home extruder
G1 Z15 F1000
M107 ; Turn off fan
G90 ; Absolute positioning
M82 ; Extruder in absolute mode
M190 S70
; Activate all used extruder
M104 T0 S275
G92 E0 ; Reset extruder position
; Wait for all used extruders to reach temperature
M109 T0 S275
;Layer count: 357
;LAYER:0
M107
G0 F9000 X50.870 Y7.542 Z0.300
;TYPE:SKIRT
G1 F1800 X80.226 Y7.542 E1.46458
G1 X80.226 Y18.042 E1.98842
G1 X119.853 Y18.042 E3.96542
G1 X119.853 Y7.542 E4.48927
G1 X148.620 Y7.542 E5.92446
G1 X148.620 Y52.792 E8.18199
G1 X50.870 Y52.792 E13.05876
G1 X50.870 Y7.542 E15.31629
G1 F2400 E11.31629
G0 F9000 X54.670 Y11.342
;TYPE:WALL-INNER
G1 F2400 E15.31629
G1 F1800 X76.426 Y11.342 E16.40170
G1 X76.426 Y21.842 E16.92555
G1 X123.653 Y21.842 E19.28172
G1 X123.653 Y11.342 E19.80556
G1 X144.820 Y11.342 E20.86159
G1 X144.820 Y48.992 E22.73995
G1 X54.670 Y48.992 E27.23756
G1 X54.670 Y11.342 E29.11592
G0 F9000 X65.559 Y15.293
G1 F1800 X65.468 Y15.992 E29.15109
G1 X65.559 Y16.693 E29.18636
G1 X65.830 Y17.345 E29.22158
G1 X66.260 Y17.905 E29.25681
G1 X66.748 Y18.280 E29.28751
G1 X66.823 Y18.336 E29.29218
G1 X67.385 Y18.569 E29.32253
G1 X67.469 Y18.605 E29.32709
G1 X68.074 Y18.684 E29.35753
G1 X68.169 Y18.698 E29.36232
G1 X68.783 Y18.617 E29.39322
G1 X68.876 Y18.604 E29.39791
G1 X69.442 Y18.370 E29.42846
G1 X69.529 Y18.333 E29.43318
G1 X70.012 Y17.962 E29.46356
G1 X70.084 Y17.908 E29.46805
G1 X70.516 Y17.344 E29.50350
G1 X70.786 Y16.693 E29.53866
G1 X70.878 Y15.992 E29.57393
G1 X70.786 Y15.293 E29.60911
G1 X70.516 Y14.639 E29.64441
G1 X70.086 Y14.080 E29.67959
G1 X69.598 Y13.705 E29.71030
G1 X69.522 Y13.649 E29.71501
G1 X68.959 Y13.416 E29.74540
G1 X68.877 Y13.380 E29.74987
G1 X68.266 Y13.299 E29.78062
G1 X68.176 Y13.286 E29.78516
G1 X67.561 Y13.368 E29.81611
G1 X67.469 Y13.381 E29.82075
G1 X66.904 Y13.615 E29.85126
G1 X66.817 Y13.652 E29.85597
G1 X66.334 Y14.023 E29.88636
G1 X66.262 Y14.077 E29.89085
G1 X65.830 Y14.639 E29.92621
G1 X65.559 Y15.293 E29.96153
G0 F9000 X68.176 Y39.011
G1 F1800 X67.561 Y39.093 E29.99249
G1 X67.469 Y39.106 E29.99712
G1 X66.904 Y39.340 E30.02763
G1 X66.817 Y39.377 E30.03235
G1 X66.334 Y39.748 E30.06273
G1 X66.262 Y39.802 E30.06722
G1 X65.830 Y40.364 E30.10259
G1 X65.559 Y41.018 E30.13791
G1 X65.468 Y41.717 E30.17307
G1 X65.559 Y42.418 E30.20834
G1 X65.830 Y43.070 E30.24357
G1 X66.260 Y43.630 E30.27879
G1 X66.748 Y44.005 E30.30950
G1 X66.823 Y44.061 E30.31417
G1 X67.385 Y44.294 E30.34452
G1 X67.469 Y44.330 E30.34908
G1 X68.074 Y44.409 E30.37952
G1 X68.169 Y44.423 E30.38431
G1 X68.783 Y44.342 E30.41521
G1 X68.876 Y44.329 E30.41989
G1 X69.442 Y44.095 E30.45045
G1 X69.529 Y44.058 E30.45516
G1 X70.012 Y43.687 E30.48555
G1 X70.084 Y43.633 E30.49004
G1 X70.516 Y43.069 E30.52548
G1 X70.786 Y42.418 E30.56064
G1 X70.878 Y41.717 E30.59592
G1 X70.786 Y41.018 E30.63109
G1 X70.516 Y40.364 E30.66639
G1 X70.086 Y39.805 E30.70158
G1 X69.598 Y39.430 E30.73228
G1 X69.522 Y39.374 E30.73699
G1 X68.959 Y39.141 E30.76739
G1 X68.877 Y39.105 E30.77186
G1 X68.266 Y39.024 E30.80261
G1 X68.176 Y39.011 E30.80714
G0 F9000 X123.594 Y21.783
G0 X128.996 Y16.677
G1 F1800 X129.268 Y17.343 E30.84303
G1 X129.698 Y17.905 E30.87834
G1 X130.245 Y18.325 E30.91275
G1 X130.910 Y18.605 E30.94874
G1 X131.519 Y18.685 E30.97939
G1 X131.607 Y18.698 E30.98383
G1 X132.312 Y18.606 E31.01930
G1 X132.964 Y18.335 E31.05452
G1 X133.450 Y17.962 E31.08509
G1 X133.522 Y17.908 E31.08958
G1 X133.954 Y17.345 E31.12498
G1 X134.225 Y16.693 E31.16021
G1 X134.316 Y15.992 E31.19547
G1 X134.225 Y15.293 E31.23064
G1 X133.954 Y14.639 E31.26596
G1 X133.524 Y14.080 E31.30115
G1 X133.036 Y13.705 E31.33185
G1 X132.961 Y13.649 E31.33652
G1 X132.399 Y13.416 E31.36687
G1 X132.315 Y13.380 E31.37143
G1 X131.704 Y13.299 E31.40218
G1 X131.614 Y13.286 E31.40672
G1 X131.000 Y13.368 E31.43762
G1 X130.908 Y13.381 E31.44226
G1 X130.342 Y13.615 E31.47281
G1 X130.255 Y13.652 E31.47753
G1 X129.772 Y14.023 E31.50792
G1 X129.700 Y14.077 E31.51241
G1 X129.269 Y14.639 E31.54774
G1 X128.999 Y15.292 E31.58299
G1 X128.906 Y15.992 E31.61822
G1 X128.996 Y16.677 E31.65269
G0 F9000 X129.386 Y16.574
;TYPE:WALL-OUTER
G1 F1800 X129.618 Y17.142 E31.68330
G1 X129.983 Y17.620 E31.71331
G1 X130.448 Y17.976 E31.74252
G1 X131.015 Y18.216 E31.77324
G1 X131.569 Y18.288 E31.80111
G1 X131.610 Y18.294 E31.80318
G1 X132.207 Y18.216 E31.83322
G1 X132.762 Y17.986 E31.86319
G1 X133.206 Y17.645 E31.89112
G1 X133.238 Y17.621 E31.89312
G1 X133.605 Y17.143 E31.92318
G1 X133.835 Y16.588 E31.95316
G1 X133.913 Y15.992 E31.98314
G1 X133.835 Y15.397 E32.01308
G1 X133.605 Y14.841 E32.04310
G1 X133.239 Y14.365 E32.07306
G1 X132.794 Y14.024 E32.10103
G1 X132.761 Y13.999 E32.10309
G1 X132.246 Y13.785 E32.13092
G1 X132.208 Y13.769 E32.13297
G1 X131.653 Y13.696 E32.16090
G1 X131.612 Y13.690 E32.16297
G1 X131.055 Y13.764 E32.19100
G1 X131.015 Y13.770 E32.19302
G1 X130.497 Y13.984 E32.22098
G1 X130.459 Y14.000 E32.22304
G1 X130.016 Y14.340 E32.25090
G1 X129.984 Y14.364 E32.25289
G1 X129.618 Y14.841 E32.28289
G1 X129.388 Y15.397 E32.31291
G1 X129.309 Y15.992 E32.34285
G1 X129.386 Y16.574 E32.37214
G0 F9000 X129.108 Y16.686
G0 X123.594 Y21.783
G0 X123.253 Y21.742
G0 X123.253 Y21.442
G1 F1800 X123.253 Y10.942 E32.89599
G1 X145.220 Y10.942 E33.99193
G1 X145.220 Y49.392 E35.91021
G1 X54.270 Y49.392 E40.44772
G1 X54.270 Y10.942 E42.36600
G1 X76.826 Y10.942 E43.49132
G1 X76.826 Y21.442 E44.01517
G1 X123.253 Y21.442 E46.33142
G0 F9000 X123.253 Y21.742
G0 X76.485 Y21.783
G0 X70.771 Y16.031
G0 X70.475 Y15.992
G1 F1800 X70.396 Y15.397 E46.36137
G1 X70.167 Y14.841 E46.39137
G1 X69.801 Y14.365 E46.42132
G1 X69.356 Y14.024 E46.44929
G1 X69.323 Y13.999 E46.45136
G1 X68.809 Y13.786 E46.47912
G1 X68.770 Y13.769 E46.48124
G1 X68.215 Y13.696 E46.50917
G1 X68.174 Y13.690 E46.51123
G1 X67.616 Y13.764 E46.53932
G1 X67.576 Y13.770 E46.54133
G1 X67.059 Y13.984 E46.56925
G1 X67.021 Y14.000 E46.57131
G1 X66.578 Y14.340 E46.59917
G1 X66.546 Y14.364 E46.60116
G1 X66.179 Y14.841 E46.63119
G1 X65.949 Y15.397 E46.66121
G1 X65.871 Y15.992 E46.69115
G1 X65.949 Y16.588 E46.72113
G1 X66.179 Y17.143 E46.75111
G1 X66.545 Y17.620 E46.78110
G1 X66.990 Y17.961 E46.80907
G1 X67.023 Y17.986 E46.81114
G1 X67.536 Y18.199 E46.83885
G1 X67.576 Y18.216 E46.84102
G1 X68.131 Y18.288 E46.86894
G1 X68.172 Y18.294 E46.87101
G1 X68.729 Y18.221 E46.89903
G1 X68.769 Y18.215 E46.90105
G1 X69.287 Y18.001 E46.92901
G1 X69.325 Y17.985 E46.93107
G1 X69.768 Y17.645 E46.95893
G1 X69.800 Y17.621 E46.96093
G1 X70.167 Y17.143 E46.99099
G1 X70.396 Y16.588 E47.02094
G1 X70.475 Y15.992 E47.05094
G0 F9000 X70.771 Y16.031
G0 X68.262 Y39.125
G0 X68.215 Y39.421
G1 F1800 X68.174 Y39.415 E47.05301
G1 X67.616 Y39.489 E47.08109
G1 X67.576 Y39.495 E47.08311
G1 X67.059 Y39.709 E47.11102
G1 X67.021 Y39.725 E47.11308
G1 X66.578 Y40.065 E47.14094
G1 X66.546 Y40.089 E47.14294
G1 X66.179 Y40.566 E47.17296
G1 X65.949 Y41.122 E47.20298
G1 X65.871 Y41.717 E47.23292
G1 X65.949 Y42.313 E47.26291
G1 X66.179 Y42.868 E47.29288
G1 X66.545 Y43.345 E47.32288
G1 X66.990 Y43.686 E47.35085
G1 X67.023 Y43.711 E47.35291
G1 X67.536 Y43.924 E47.38062
G1 X67.576 Y43.941 E47.38279
G1 X68.131 Y44.013 E47.41071
G1 X68.172 Y44.019 E47.41278
G1 X68.729 Y43.946 E47.44081
G1 X68.769 Y43.940 E47.44282
G1 X69.287 Y43.726 E47.47079
G1 X69.325 Y43.710 E47.47284
G1 X69.768 Y43.370 E47.50070
G1 X69.800 Y43.346 E47.50270
G1 X70.167 Y42.868 E47.53276
G1 X70.396 Y42.313 E47.56272
G1 X70.475 Y41.717 E47.59271
G1 X70.396 Y41.122 E47.62266
G1 X70.167 Y40.566 E47.65266
G1 X69.801 Y40.090 E47.68261
G1 X69.356 Y39.749 E47.71058
G1 X69.323 Y39.724 E47.71265
G1 X68.809 Y39.511 E47.74041
G1 X68.770 Y39.494 E47.74253
G1 X68.215 Y39.421 E47.77046
G0 F9000 X68.022 Y38.889
;TYPE:SKIN
G1 F1800 X54.809 Y25.676 E48.70271
G0 F9000 X54.809 Y26.242
G1 F1800 X67.524 Y38.957 E49.59982
G0 F9000 X67.106 Y39.105
G1 F1800 X54.809 Y26.807 E50.46747
G0 F9000 X54.809 Y27.373
G1 F1800 X66.714 Y39.279 E51.30747
G0 F9000 X66.393 Y39.523
G1 F1800 X54.809 Y27.939 E52.12478
G0 F9000 X54.809 Y28.504
G1 F1800 X66.094 Y39.790 E52.92104
G0 F9000 X67.471 Y39.107
G0 X68.627 Y38.929
G1 F1800 X54.809 Y25.110 E53.89601
G0 F9000 X54.809 Y24.545
G1 F1800 X69.461 Y39.197 E54.92978
G0 F9000 X76.570 Y21.981
G1 F1800 X103.440 Y48.851 E56.82561
G0 F9000 X102.874 Y48.851
G1 F1800 X70.871 Y16.848 E59.08359
G0 F9000 X70.706 Y17.249
G1 F1800 X102.309 Y48.851 E61.31332
G0 F9000 X101.743 Y48.851
G1 F1800 X70.492 Y17.601 E63.51821
G0 F9000 X70.247 Y17.921
G1 F1800 X101.177 Y48.851 E65.70049
G0 F9000 X100.612 Y48.851
G1 F1800 X69.947 Y18.187 E67.86404
G0 F9000 X69.627 Y18.432
G1 F1800 X100.046 Y48.851 E70.01026
G0 F9000 X104.006 Y48.851
G1 F1800 X77.136 Y21.981 E71.90608
G0 F9000 X77.701 Y21.981
G1 F1800 X104.571 Y48.851 E73.80191
G0 F9000 X105.137 Y48.851
G1 F1800 X78.267 Y21.981 E75.69773
G0 F9000 X78.833 Y21.981
G1 F1800 X105.703 Y48.851 E77.59355
G0 F9000 X106.268 Y48.851
G1 F1800 X79.398 Y21.981 E79.48938
G0 F9000 X79.964 Y21.981
G1 F1800 X106.834 Y48.851 E81.38520
G0 F9000 X107.400 Y48.851
G1 F1800 X80.530 Y21.981 E83.28103
G0 F9000 X81.095 Y21.981
G1 F1800 X107.966 Y48.851 E85.17688
G0 F9000 X108.531 Y48.851
G1 F1800 X81.661 Y21.981 E87.07271
G0 F9000 X82.227 Y21.981
G1 F1800 X109.097 Y48.851 E88.96853
G0 F9000 X109.663 Y48.851
G1 F1800 X82.793 Y21.981 E90.86436
G0 F9000 X83.358 Y21.981
G1 F1800 X110.228 Y48.851 E92.76018
G0 F9000 X110.794 Y48.851
G1 F1800 X83.924 Y21.981 E94.65600
G0 F9000 X84.490 Y21.981
G1 F1800 X111.360 Y48.851 E96.55183
G0 F9000 X111.925 Y48.851
G1 F1800 X85.055 Y21.981 E98.44765
G0 F9000 X85.621 Y21.981
G1 F1800 X112.491 Y48.851 E100.34347
G0 F9000 X113.057 Y48.851
G1 F1800 X86.187 Y21.981 E102.23930
G0 F9000 X86.752 Y21.981
G1 F1800 X113.622 Y48.851 E104.13512
G0 F9000 X114.188 Y48.851
G1 F1800 X87.318 Y21.981 E106.03094
G0 F9000 X87.884 Y21.981
G1 F1800 X114.754 Y48.851 E107.92677
G0 F9000 X115.319 Y48.851
G1 F1800 X88.449 Y21.981 E109.82259
G0 F9000 X89.015 Y21.981
G1 F1800 X115.885 Y48.851 E111.71842
G0 F9000 X116.451 Y48.851
G1 F1800 X89.581 Y21.981 E113.61424
G0 F9000 X90.146 Y21.981
G1 F1800 X117.016 Y48.851 E115.51006
G0 F9000 X117.582 Y48.851
G1 F1800 X90.712 Y21.981 E117.40589
G0 F9000 X91.278 Y21.981
G1 F1800 X118.148 Y48.851 E119.30171
G0 F9000 X118.714 Y48.851
G1 F1800 X91.843 Y21.981 E121.19757
G0 F9000 X92.409 Y21.981
G1 F1800 X119.279 Y48.851 E123.09339
G0 F9000 X119.845 Y48.851
G1 F1800 X92.975 Y21.981 E124.98922
G0 F9000 X93.541 Y21.981
G1 F1800 X120.411 Y48.851 E126.88504
G0 F9000 X120.976 Y48.851
G1 F1800 X94.106 Y21.981 E128.78086
G0 F9000 X94.672 Y21.981
G1 F1800 X121.542 Y48.851 E130.67669
G0 F9000 X122.108 Y48.851
G1 F1800 X95.238 Y21.981 E132.57251
G0 F9000 X95.803 Y21.981
G1 F1800 X122.673 Y48.851 E134.46833
G0 F9000 X123.239 Y48.851
G1 F1800 X96.369 Y21.981 E136.36416
G0 F9000 X96.935 Y21.981
G1 F1800 X123.805 Y48.851 E138.25998
G0 F9000 X124.370 Y48.851
G1 F1800 X97.500 Y21.981 E140.15581
G0 F9000 X98.066 Y21.981
G1 F1800 X124.936 Y48.851 E142.05163
G0 F9000 X125.502 Y48.851
G1 F1800 X98.632 Y21.981 E143.94745
G0 F9000 X99.197 Y21.981
G1 F1800 X126.067 Y48.851 E145.84328
G0 F9000 X126.633 Y48.851
G1 F1800 X99.763 Y21.981 E147.73910
G0 F9000 X100.329 Y21.981
G1 F1800 X127.199 Y48.851 E149.63492
G0 F9000 X127.765 Y48.851
G1 F1800 X100.894 Y21.981 E151.53078
G0 F9000 X101.460 Y21.981
G1 F1800 X128.330 Y48.851 E153.42661
G0 F9000 X128.896 Y48.851
G1 F1800 X102.026 Y21.981 E155.32243
G0 F9000 X102.592 Y21.981
G1 F1800 X129.462 Y48.851 E157.21825
G0 F9000 X130.027 Y48.851
G1 F1800 X103.157 Y21.981 E159.11408
G0 F9000 X103.723 Y21.981
G1 F1800 X130.593 Y48.851 E161.00990
G0 F9000 X131.159 Y48.851
G1 F1800 X104.289 Y21.981 E162.90572
G0 F9000 X104.854 Y21.981
G1 F1800 X131.724 Y48.851 E164.80155
G0 F9000 X132.290 Y48.851
G1 F1800 X105.420 Y21.981 E166.69737
G0 F9000 X105.986 Y21.981
G1 F1800 X132.856 Y48.851 E168.59319
G0 F9000 X133.421 Y48.851
G1 F1800 X106.551 Y21.981 E170.48902
G0 F9000 X107.117 Y21.981
G1 F1800 X133.987 Y48.851 E172.38484
G0 F9000 X134.553 Y48.851
G1 F1800 X107.683 Y21.981 E174.28067
G0 F9000 X108.248 Y21.981
G1 F1800 X135.118 Y48.851 E176.17649
G0 F9000 X135.684 Y48.851
G1 F1800 X108.814 Y21.981 E178.07231
G0 F9000 X109.380 Y21.981
G1 F1800 X136.250 Y48.851 E179.96814
G0 F9000 X136.815 Y48.851
G1 F1800 X109.945 Y21.981 E181.86396
G0 F9000 X110.511 Y21.981
G1 F1800 X137.381 Y48.851 E183.75978
G0 F9000 X137.947 Y48.851
G1 F1800 X111.077 Y21.981 E185.65561
G0 F9000 X111.642 Y21.981
G1 F1800 X138.513 Y48.851 E187.55147
G0 F9000 X139.078 Y48.851
G1 F1800 X112.208 Y21.981 E189.44729
G0 F9000 X112.774 Y21.981
G1 F1800 X139.644 Y48.851 E191.34311
G0 F9000 X140.210 Y48.851
G1 F1800 X113.340 Y21.981 E193.23894
G0 F9000 X113.905 Y21.981
G1 F1800 X140.775 Y48.851 E195.13476
G0 F9000 X141.341 Y48.851
G1 F1800 X114.471 Y21.981 E197.03058
G0 F9000 X115.037 Y21.981
G1 F1800 X141.907 Y48.851 E198.92641
G0 F9000 X142.472 Y48.851
G1 F1800 X115.602 Y21.981 E200.82223
G0 F9000 X116.168 Y21.981
G1 F1800 X143.038 Y48.851 E202.71806
G0 F9000 X143.604 Y48.851
G1 F1800 X116.734 Y21.981 E204.61388
G0 F9000 X117.299 Y21.981
G1 F1800 X144.169 Y48.851 E206.50970
G0 F9000 X144.679 Y48.796
G1 F1800 X117.865 Y21.981 E208.40161
G0 F9000 X118.431 Y21.981
G1 F1800 X144.679 Y48.230 E210.25358
G0 F9000 X144.679 Y47.664
G1 F1800 X118.996 Y21.981 E212.06566
G0 F9000 X119.562 Y21.981
G1 F1800 X144.679 Y47.098 E213.83780
G0 F9000 X144.679 Y46.533
G1 F1800 X120.128 Y21.981 E215.57004
G0 F9000 X120.693 Y21.981
G1 F1800 X144.679 Y45.967 E217.26238
G0 F9000 X144.679 Y45.401
G1 F1800 X121.259 Y21.981 E218.91479
G0 F9000 X121.825 Y21.981
G1 F1800 X144.679 Y44.836 E220.52730
G0 F9000 X144.679 Y44.270
G1 F1800 X122.390 Y21.981 E222.09991
G0 F9000 X122.956 Y21.981
G1 F1800 X144.679 Y43.704 E223.63258
G0 F9000 X144.679 Y43.139
G1 F1800 X123.522 Y21.981 E225.12536
G0 F9000 X123.791 Y21.685
G1 F1800 X144.679 Y42.573 E226.59912
G0 F9000 X144.679 Y42.007
G1 F1800 X123.791 Y21.119 E228.07288
G0 F9000 X123.791 Y20.554
G1 F1800 X144.679 Y41.442 E229.54664
G0 F9000 X144.679 Y40.876
G1 F1800 X123.791 Y19.988 E231.02040
G0 F9000 X123.791 Y19.422
G1 F1800 X144.679 Y40.310 E232.49416
G0 F9000 X144.679 Y39.745
G1 F1800 X123.791 Y18.857 E233.96792
G0 F9000 X123.791 Y18.291
G1 F1800 X144.679 Y39.179 E235.44169
G0 F9000 X144.679 Y38.613
G1 F1800 X123.791 Y17.725 E236.91545
G0 F9000 X123.791 Y17.160
G1 F1800 X144.679 Y38.048 E238.38921
G0 F9000 X144.679 Y37.482
G1 F1800 X123.791 Y16.594 E239.86297
G0 F9000 X123.791 Y16.028
G1 F1800 X144.679 Y36.916 E241.33673
G0 F9000 X144.679 Y36.350
G1 F1800 X123.791 Y15.463 E242.81046
G0 F9000 X123.791 Y14.897
G1 F1800 X144.679 Y35.785 E244.28422
G0 F9000 X144.679 Y35.219
G1 F1800 X123.791 Y14.331 E245.75798
G0 F9000 X123.791 Y13.765
G1 F1800 X144.679 Y34.653 E247.23174
G0 F9000 X144.679 Y34.088
G1 F1800 X123.791 Y13.200 E248.70550
G0 F9000 X123.791 Y12.634
G1 F1800 X144.679 Y33.522 E250.17926
G0 F9000 X144.679 Y32.956
G1 F1800 X130.157 Y18.434 E251.20387
G0 F9000 X131.055 Y18.766
G1 F1800 X144.679 Y32.391 E252.16515
G0 F9000 X144.679 Y31.825
G1 F1800 X131.684 Y18.830 E253.08202
G0 F9000 X132.184 Y18.764
G1 F1800 X144.679 Y31.259 E253.96361
G0 F9000 X144.679 Y30.694
G1 F1800 X132.617 Y18.631 E254.81468
G0 F9000 X133.016 Y18.465
G1 F1800 X144.679 Y30.128 E255.63757
G0 F9000 X144.679 Y29.562
G1 F1800 X133.339 Y18.222 E256.43767
G0 F9000 X133.650 Y17.968
G1 F1800 X144.679 Y28.997 E257.21582
G0 F9000 X144.679 Y28.431
G1 F1800 X133.896 Y17.647 E257.97666
G0 F9000 X134.120 Y17.306
G1 F1800 X144.679 Y27.865 E258.72165
G0 F9000 X144.679 Y27.299
G1 F1800 X134.286 Y16.906 E259.45493
G0 F9000 X134.397 Y16.452
G1 F1800 X144.679 Y26.734 E260.18038
G0 F9000 X144.679 Y26.168
G1 F1800 X134.450 Y15.939 E260.90210
G0 F9000 X134.364 Y15.287
G1 F1800 X144.679 Y25.602 E261.62988
G0 F9000 X144.679 Y25.037
G1 F1800 X133.627 Y13.985 E262.40965
G0 F9000 X133.617 Y13.974
G1 F1800 X131.124 Y11.481 E262.58555
G0 F9000 X130.558 Y11.481
G1 F1800 X132.313 Y13.237 E262.70941
G0 F9000 X131.661 Y13.150
