;Generated with Cura_SteamEngine 15.01
; Default start code
G28 ; Home extruder
G1 Z15 F1000
M107 ; Turn off fan
G90 ; Absolute positioning
M82 ; Extruder in absolute mode
M190 S50
; Activate all used extruder
M104 T0 S275
G92 E0 ; Reset extruder position
; Wait for all used extruders to reach temperature
M109 T0 S275
;Layer count: 77
;LAYER:0
M107
G0 F9000 X161.191 Y27.575 Z0.300
;TYPE:SKIRT
G1 F1800 X168.066 Y20.700 E0.48507
G1 X184.591 Y20.700 E1.30950
G1 X184.591 Y67.100 E3.62441
G1 X168.066 Y67.100 E4.44884
G1 X161.191 Y60.225 E4.93391
G1 X161.191 Y27.575 E6.56283
G0 F9000 X160.308 Y21.203
G1 F1800 X160.308 Y67.603 E8.87773
G1 X143.783 Y67.603 E9.70217
G1 X136.908 Y60.728 E10.18724
G1 X136.908 Y52.610 E10.59225
G1 X136.455 Y53.529 E10.64336
G1 X135.483 Y54.983 E10.73062
G1 X134.330 Y56.299 E10.81791
G1 X133.014 Y57.452 E10.90520
G1 X131.559 Y58.424 E10.99250
G1 X129.991 Y59.198 E11.07974
G1 X128.334 Y59.761 E11.16705
G1 X126.618 Y60.101 E11.25432
G1 X124.873 Y60.216 E11.34157
G1 X123.129 Y60.101 E11.42877
G1 X121.413 Y59.761 E11.51604
G1 X119.757 Y59.198 E11.60331
G1 X118.187 Y58.424 E11.69063
G1 X116.732 Y57.452 E11.77793
G1 X115.418 Y56.299 E11.86515
G1 X114.522 Y55.277 E11.93296
G1 X114.521 Y55.277 E11.93301
G1 X114.269 Y54.993 E11.95195
G1 X113.495 Y53.834 E12.02148
G1 X113.295 Y53.538 E12.03930
G1 X112.679 Y52.289 E12.10878
G1 X112.518 Y51.964 E12.12688
G1 X112.498 Y51.905 E12.12998
G1 X112.154 Y52.916 E12.18326
G1 X111.382 Y54.485 E12.27050
G1 X110.409 Y55.941 E12.35787
G1 X109.256 Y57.256 E12.44512
G1 X107.940 Y58.409 E12.53241
G1 X106.484 Y59.382 E12.61978
G1 X104.917 Y60.153 E12.70691
G1 X103.260 Y60.718 E12.79425
G1 X101.543 Y61.058 E12.88158
G1 X99.800 Y61.172 E12.96872
G1 X98.056 Y61.058 E13.05591
G1 X96.339 Y60.718 E13.14324
G1 X94.682 Y60.153 E13.23058
G1 X93.115 Y59.382 E13.31771
G1 X91.659 Y58.409 E13.40508
G1 X90.344 Y57.256 E13.49233
G1 X89.448 Y56.234 E13.56014
G1 X89.447 Y56.234 E13.56019
G1 X89.195 Y55.950 E13.57913
G1 X88.432 Y54.808 E13.64765
G1 X88.219 Y54.494 E13.66658
G1 X87.605 Y53.241 E13.73620
G1 X87.446 Y52.921 E13.75402
G1 X87.000 Y51.609 E13.82316
G1 X86.882 Y51.272 E13.84097
G1 X86.612 Y49.901 E13.91068
G1 X86.541 Y49.548 E13.92865
G1 X86.451 Y48.163 E13.99789
G1 X86.426 Y47.806 E14.01575
G1 X86.517 Y46.420 E14.08504
G1 X86.540 Y46.057 E14.10319
G1 X86.882 Y44.337 E14.19068
G1 X87.446 Y42.682 E14.27791
G1 X88.217 Y41.115 E14.36504
G1 X89.190 Y39.659 E14.45241
G1 X90.343 Y38.343 E14.53970
G1 X91.659 Y37.190 E14.62699
G1 X93.115 Y36.217 E14.71436
G1 X94.682 Y35.446 E14.80148
G1 X96.339 Y34.881 E14.88883
G1 X98.056 Y34.541 E14.97615
G1 X99.800 Y34.427 E15.06334
G1 X101.543 Y34.541 E15.15049
G1 X103.260 Y34.881 E15.23781
G1 X104.917 Y35.446 E15.32516
G1 X106.484 Y36.217 E15.41228
G1 X107.940 Y37.190 E15.49965
G1 X109.255 Y38.343 E15.58690
G1 X110.151 Y39.365 E15.65471
G1 X110.152 Y39.365 E15.65476
G1 X110.405 Y39.649 E15.67374
G1 X111.167 Y40.792 E15.74227
G1 X111.379 Y41.106 E15.76117
G1 X111.988 Y42.345 E15.83005
G1 X112.153 Y42.678 E15.84859
G1 X112.174 Y42.739 E15.85181
G1 X112.518 Y41.725 E15.90523
G1 X113.292 Y40.156 E15.99252
G1 X114.264 Y38.702 E16.07977
G1 X115.417 Y37.388 E16.16699
G1 X116.732 Y36.233 E16.25431
G1 X118.164 Y35.277 E16.34021
G1 X116.513 Y35.277 E16.42258
G1 X116.513 Y33.217 E16.52535
G1 X81.713 Y33.217 E18.26153
G1 X81.713 Y35.277 E18.36430
G1 X77.421 Y35.277 E18.57843
G1 X77.917 Y35.446 E18.60457
G1 X79.484 Y36.217 E18.69170
G1 X80.940 Y37.190 E18.77907
G1 X82.255 Y38.343 E18.86632
G1 X83.151 Y39.365 E18.93413
G1 X83.152 Y39.365 E18.93418
G1 X83.405 Y39.649 E18.95316
G1 X84.167 Y40.792 E19.02169
G1 X84.379 Y41.106 E19.04059
G1 X84.988 Y42.345 E19.10947
G1 X85.153 Y42.678 E19.12801
G1 X85.599 Y43.990 E19.19715
G1 X85.717 Y44.327 E19.21496
G1 X85.985 Y45.687 E19.28411
G1 X86.058 Y46.051 E19.30264
G1 X86.147 Y47.418 E19.37098
G1 X86.173 Y47.793 E19.38973
G1 X86.057 Y49.544 E19.47728
G1 X85.718 Y51.260 E19.56455
G1 X85.154 Y52.916 E19.65183
G1 X84.382 Y54.485 E19.73907
G1 X83.409 Y55.941 E19.82644
G1 X82.256 Y57.256 E19.91369
G1 X80.940 Y58.409 E20.00098
G1 X79.484 Y59.382 E20.08835
G1 X77.917 Y60.153 E20.17547
G1 X76.260 Y60.718 E20.26282
G1 X74.543 Y61.058 E20.35014
G1 X72.800 Y61.172 E20.43729
G1 X71.056 Y61.058 E20.52448
G1 X69.339 Y60.718 E20.61180
G1 X67.682 Y60.153 E20.69915
G1 X66.115 Y59.382 E20.78627
G1 X64.659 Y58.409 E20.87364
G1 X63.344 Y57.256 E20.96089
G1 X62.448 Y56.234 E21.02870
G1 X62.447 Y56.234 E21.02875
G1 X62.195 Y55.950 E21.04770
G1 X61.432 Y54.808 E21.11622
G1 X61.219 Y54.494 E21.13515
G1 X60.605 Y53.241 E21.20476
G1 X60.446 Y52.921 E21.22259
G1 X60.000 Y51.609 E21.29172
G1 X59.882 Y51.272 E21.30954
G1 X59.612 Y49.901 E21.37925
G1 X59.541 Y49.548 E21.39721
G1 X59.451 Y48.163 E21.46646
G1 X59.426 Y47.806 E21.48431
G1 X59.517 Y46.420 E21.55361
G1 X59.540 Y46.057 E21.57175
G1 X59.882 Y44.337 E21.65925
G1 X60.446 Y42.682 E21.74648
G1 X61.217 Y41.115 E21.83360
G1 X62.190 Y39.659 E21.92097
G1 X63.343 Y38.343 E22.00826
G1 X64.659 Y37.190 E22.09555
G1 X66.115 Y36.217 E22.18292
G1 X67.682 Y35.446 E22.27005
G1 X69.339 Y34.881 E22.35739
G1 X71.056 Y34.541 E22.44471
G1 X72.223 Y34.465 E22.50306
G1 X72.223 Y0.037 E24.22068
G1 X81.713 Y0.037 E24.69414
G1 X81.713 Y2.097 E24.79691
G1 X116.513 Y2.097 E26.53309
G1 X116.513 Y0.037 E26.63586
G1 X126.003 Y0.037 E27.10932
G1 X126.003 Y33.544 E28.78099
G1 X126.618 Y33.585 E28.81174
G1 X128.334 Y33.925 E28.89902
G1 X129.991 Y34.488 E28.98633
G1 X131.558 Y35.261 E29.07350
G1 X133.014 Y36.233 E29.16084
G1 X134.330 Y37.388 E29.24820
G1 X135.225 Y38.409 E29.31594
G1 X135.226 Y38.409 E29.31599
G1 X135.479 Y38.693 E29.33496
G1 X136.240 Y39.835 E29.40343
G1 X136.451 Y40.148 E29.42226
G1 X136.908 Y41.075 E29.47382
G1 X136.908 Y28.078 E30.12225
G1 X143.783 Y21.203 E30.60731
G1 X160.308 Y21.203 E31.43175
G0 F9000 X177.177 Y73.239
G1 F1800 X178.894 Y72.899 E31.51907
G1 X180.638 Y72.784 E31.60627
G1 X182.383 Y72.899 E31.69352
G1 X184.099 Y73.239 E31.78079
G1 X185.755 Y73.802 E31.86806
G1 X187.324 Y74.574 E31.95530
G1 X188.779 Y75.547 E32.04262
G1 X190.093 Y76.699 E32.12981
G1 X190.991 Y77.722 E32.19772
G1 X191.244 Y78.007 E32.21673
G1 X192.005 Y79.149 E32.28520
G1 X192.216 Y79.462 E32.30403
G1 X192.832 Y80.711 E32.37351
G1 X192.993 Y81.036 E32.39160
G1 X193.438 Y82.349 E32.46077
G1 X193.437 Y82.349 E32.46082
G1 X193.554 Y82.683 E32.47847
G1 X193.824 Y84.044 E32.54770
G1 X193.897 Y84.408 E32.56622
G1 X193.986 Y85.776 E32.63461
G1 X194.012 Y86.151 E32.65337
G1 X193.896 Y87.902 E32.74092
G1 X193.556 Y89.617 E32.82814
G1 X192.993 Y91.273 E32.91541
G1 X192.220 Y92.842 E33.00267
G1 X191.248 Y94.298 E33.09001
G1 X190.093 Y95.613 E33.17733
G1 X188.779 Y96.766 E33.26454
G1 X187.324 Y97.739 E33.35187
G1 X185.756 Y98.510 E33.43904
G1 X184.099 Y99.075 E33.52638
G1 X182.383 Y99.414 E33.61365
G1 X180.638 Y99.530 E33.70090
G1 X178.894 Y99.414 E33.78810
G1 X177.177 Y99.075 E33.87541
G1 X175.522 Y98.510 E33.96266
G1 X173.953 Y97.739 E34.04988
G1 X172.497 Y96.766 E34.13725
G1 X171.183 Y95.613 E34.22446
G1 X170.287 Y94.591 E34.29227
G1 X170.286 Y94.591 E34.29232
G1 X170.034 Y94.307 E34.31126
G1 X169.271 Y93.165 E34.37978
G1 X169.059 Y92.852 E34.39864
G1 X168.444 Y91.601 E34.46819
G1 X168.283 Y91.277 E34.48624
G1 X167.838 Y89.964 E34.55541
G1 X167.839 Y89.964 E34.55546
G1 X167.722 Y89.630 E34.57311
G1 X167.450 Y88.260 E34.64280
G1 X167.379 Y87.905 E34.66086
G1 X167.289 Y86.521 E34.73005
G1 X167.264 Y86.162 E34.74801
G1 X167.356 Y84.774 E34.81741
G1 X167.376 Y84.423 E34.83495
G1 X167.721 Y82.694 E34.92291
G1 X168.283 Y81.039 E35.01011
G1 X169.057 Y79.471 E35.09734
G1 X170.029 Y78.016 E35.18464
G1 X171.182 Y76.700 E35.27193
G1 X172.497 Y75.547 E35.35919
G1 X173.953 Y74.574 E35.44655
G1 X175.523 Y73.802 E35.53384
G1 X177.177 Y73.239 E35.62101
G1 F2400 E31.62101
G0 F9000 X122.203 Y31.477
;TYPE:WALL-INNER
G1 F2400 E35.62101
G1 F1800 X120.313 Y31.477 E35.71530
G1 X120.313 Y29.417 E35.81807
G1 X77.913 Y29.417 E37.93342
G1 X77.913 Y31.477 E38.03619
G1 X76.023 Y31.477 E38.13048
G1 X76.023 Y3.837 E39.50945
G1 X77.913 Y3.837 E39.60374
G1 X77.913 Y5.897 E39.70651
G1 X120.313 Y5.897 E41.82186
G1 X120.313 Y3.837 E41.92463
G1 X122.203 Y3.837 E42.01893
G1 X122.203 Y31.477 E43.39789
G0 F9000 X120.213 Y29.817
G0 X119.913 Y29.817
;TYPE:WALL-OUTER
G1 F1800 X78.313 Y29.817 E45.47332
G1 X78.313 Y31.877 E45.57610
G1 X75.623 Y31.877 E45.71030
G1 X75.623 Y3.437 E47.12918
G1 X78.313 Y3.437 E47.26338
G1 X78.313 Y5.497 E47.36616
G1 X119.913 Y5.497 E49.44159
G1 X119.913 Y3.437 E49.54436
G1 X122.603 Y3.437 E49.67857
G1 X122.603 Y31.877 E51.09745
G1 X119.913 Y31.877 E51.23165
G1 X119.913 Y29.817 E51.33442
G0 F9000 X119.503 Y29.277
;TYPE:SKIN
G1 F1800 X96.263 Y6.036 E52.97417
G0 F9000 X95.697 Y6.036
G1 F1800 X118.938 Y29.277 E54.61394
G0 F9000 X118.372 Y29.277
G1 F1800 X95.132 Y6.036 E56.25369
G0 F9000 X94.566 Y6.036
G1 F1800 X117.806 Y29.277 E57.89343
G0 F9000 X117.241 Y29.277
G1 F1800 X94.000 Y6.036 E59.53321
G0 F9000 X93.434 Y6.036
G1 F1800 X116.675 Y29.277 E61.17299
G0 F9000 X116.109 Y29.277
G1 F1800 X92.869 Y6.036 E62.81273
G0 F9000 X92.303 Y6.036
G1 F1800 X115.544 Y29.277 E64.45251
G0 F9000 X114.978 Y29.277
G1 F1800 X91.737 Y6.036 E66.09229
G0 F9000 X91.172 Y6.036
G1 F1800 X114.412 Y29.277 E67.73203
G0 F9000 X113.847 Y29.277
G1 F1800 X90.606 Y6.036 E69.37181
G0 F9000 X90.040 Y6.036
G1 F1800 X113.281 Y29.277 E71.01158
G0 F9000 X112.715 Y29.277
G1 F1800 X89.475 Y6.036 E72.65133
G0 F9000 X88.909 Y6.036
G1 F1800 X112.149 Y29.277 E74.29107
G0 F9000 X111.584 Y29.277
G1 F1800 X88.343 Y6.036 E75.93085
G0 F9000 X87.778 Y6.036
G1 F1800 X111.018 Y29.277 E77.57059
G0 F9000 X110.452 Y29.277
G1 F1800 X87.212 Y6.036 E79.21033
G0 F9000 X86.646 Y6.036
G1 F1800 X109.887 Y29.277 E80.85011
G0 F9000 X109.321 Y29.277
G1 F1800 X86.081 Y6.036 E82.48985
G0 F9000 X85.515 Y6.036
G1 F1800 X108.755 Y29.277 E84.12960
G0 F9000 X108.190 Y29.277
G1 F1800 X84.949 Y6.036 E85.76938
G0 F9000 X84.384 Y6.036
G1 F1800 X107.624 Y29.277 E87.40912
G0 F9000 X107.058 Y29.277
G1 F1800 X83.818 Y6.036 E89.04886
G0 F9000 X83.252 Y6.036
G1 F1800 X106.493 Y29.277 E90.68864
G0 F9000 X105.927 Y29.277
G1 F1800 X82.686 Y6.036 E92.32842
G0 F9000 X82.121 Y6.036
G1 F1800 X105.361 Y29.277 E93.96816
G0 F9000 X104.796 Y29.277
G1 F1800 X81.555 Y6.036 E95.60794
G0 F9000 X80.989 Y6.036
G1 F1800 X104.230 Y29.277 E97.24772
G0 F9000 X103.664 Y29.277
G1 F1800 X80.424 Y6.036 E98.88746
G0 F9000 X96.829 Y6.036
G1 F1800 X120.069 Y29.277 E100.52720
G0 F9000 X120.452 Y29.659
G1 F1800 X122.062 Y31.269 E100.64080
G0 F9000 X121.563 Y31.336
G1 F1800 X120.452 Y30.225 E100.71918
G0 F9000 X120.452 Y30.790
G1 F1800 X120.997 Y31.336 E100.75767
G0 F9000 X122.062 Y30.703
G1 F1800 X97.394 Y6.036 E102.49810
G0 F9000 X97.960 Y6.036
G1 F1800 X122.062 Y30.138 E104.19862
G0 F9000 X122.062 Y29.572
G1 F1800 X98.526 Y6.036 E105.85921
G0 F9000 X99.091 Y6.036
G1 F1800 X122.062 Y29.006 E107.47991
G0 F9000 X122.062 Y28.441
G1 F1800 X99.657 Y6.036 E109.06070
G0 F9000 X100.223 Y6.036
G1 F1800 X122.062 Y27.875 E110.60156
G0 F9000 X122.062 Y27.309
G1 F1800 X100.788 Y6.036 E112.10252
G0 F9000 X101.354 Y6.036
G1 F1800 X122.062 Y26.744 E113.56358
G0 F9000 X122.062 Y26.178
G1 F1800 X101.920 Y6.036 E114.98471
G0 F9000 X102.485 Y6.036
G1 F1800 X122.062 Y25.612 E116.36594
G0 F9000 X122.062 Y25.047
G1 F1800 X103.051 Y6.036 E117.70727
G0 F9000 X103.617 Y6.036
G1 F1800 X122.062 Y24.481 E119.00866
G0 F9000 X122.062 Y23.915
G1 F1800 X104.182 Y6.036 E120.27016
G0 F9000 X104.748 Y6.036
G1 F1800 X122.062 Y23.350 E121.49175
G0 F9000 X122.062 Y22.784
G1 F1800 X105.314 Y6.036 E122.67341
G0 F9000 X105.880 Y6.036
G1 F1800 X122.062 Y22.218 E123.81514
G0 F9000 X122.062 Y21.653
G1 F1800 X106.445 Y6.036 E124.91700
G0 F9000 X107.011 Y6.036
G1 F1800 X122.062 Y21.087 E125.97893
G0 F9000 X122.062 Y20.521
G1 F1800 X107.577 Y6.036 E127.00093
G0 F9000 X108.142 Y6.036
G1 F1800 X122.062 Y19.955 E127.98302
G0 F9000 X122.062 Y19.390
G1 F1800 X108.708 Y6.036 E128.92522
G0 F9000 X109.274 Y6.036
G1 F1800 X122.062 Y18.824 E129.82748
G0 F9000 X122.062 Y18.258
G1 F1800 X109.839 Y6.036 E130.68985
G0 F9000 X110.405 Y6.036
G1 F1800 X122.062 Y17.693 E131.51231
G0 F9000 X122.062 Y17.127
G1 F1800 X110.971 Y6.036 E132.29484
G0 F9000 X111.536 Y6.036
G1 F1800 X122.062 Y16.561 E133.03747
G0 F9000 X122.062 Y15.996
G1 F1800 X112.102 Y6.036 E133.74020
G0 F9000 X112.668 Y6.036
G1 F1800 X122.062 Y15.430 E134.40300
G0 F9000 X122.062 Y14.864
G1 F1800 X113.233 Y6.036 E135.02590
G0 F9000 X113.799 Y6.036
G1 F1800 X122.062 Y14.299 E135.60890
G0 F9000 X122.062 Y13.733
G1 F1800 X114.365 Y6.036 E136.15196
G0 F9000 X114.931 Y6.036
G1 F1800 X122.062 Y13.167 E136.65510
G0 F9000 X122.062 Y12.602
G1 F1800 X115.496 Y6.036 E137.11836
G0 F9000 X116.062 Y6.036
G1 F1800 X122.062 Y12.036 E137.54169
G0 F9000 X122.062 Y11.470
G1 F1800 X116.628 Y6.036 E137.92509
G0 F9000 X117.193 Y6.036
G1 F1800 X122.062 Y10.905 E138.26863
G0 F9000 X122.062 Y10.339
G1 F1800 X117.759 Y6.036 E138.57223
G0 F9000 X118.325 Y6.036
G1 F1800 X122.062 Y9.773 E138.83589
G0 F9000 X122.062 Y9.207
G1 F1800 X118.890 Y6.036 E139.05966
G0 F9000 X119.456 Y6.036
G1 F1800 X122.062 Y8.642 E139.24353
G0 F9000 X122.062 Y8.076
G1 F1800 X120.022 Y6.036 E139.38746
G0 F9000 X120.452 Y5.900
G1 F1800 X122.062 Y7.510 E139.50105
G0 F9000 X122.062 Y6.945
G1 F1800 X120.452 Y5.335 E139.61465
G0 F9000 X120.452 Y4.769
G1 F1800 X122.062 Y6.379 E139.72824
G0 F9000 X122.062 Y5.813
G1 F1800 X120.452 Y4.203 E139.84184
G0 F9000 X120.791 Y3.977
G1 F1800 X122.062 Y5.248 E139.93151
G0 F9000 X122.062 Y4.682
G1 F1800 X121.357 Y3.977 E139.98125
G0 F9000 X121.922 Y3.977
G1 F1800 X122.062 Y4.116 E139.99110
G0 F9000 X103.098 Y29.277
G1 F1800 X79.858 Y6.036 E141.63084
G0 F9000 X79.292 Y6.036
G1 F1800 X102.533 Y29.277 E143.27062
G0 F9000 X101.967 Y29.277
G1 F1800 X78.727 Y6.036 E144.91036
G0 F9000 X78.161 Y6.036
G1 F1800 X101.401 Y29.277 E146.55010
G0 F9000 X100.836 Y29.277
G1 F1800 X76.161 Y4.602 E148.29106
G0 F9000 X76.161 Y5.168
G1 F1800 X100.270 Y29.277 E149.99208
G0 F9000 X99.704 Y29.277
G1 F1800 X76.161 Y5.733 E151.65320
G0 F9000 X76.161 Y6.299
G1 F1800 X99.139 Y29.277 E153.27442
G0 F9000 X98.573 Y29.277
G1 F1800 X76.161 Y6.865 E154.85571
G0 F9000 X76.161 Y7.430
G1 F1800 X98.007 Y29.277 E156.39710
G0 F9000 X97.442 Y29.277
G1 F1800 X76.161 Y7.996 E157.89859
G0 F9000 X76.161 Y8.562
G1 F1800 X96.876 Y29.277 E159.36014
G0 F9000 X96.310 Y29.277
G1 F1800 X76.161 Y9.128 E160.78176
G0 F9000 X76.161 Y9.693
G1 F1800 X95.745 Y29.277 E162.16352
G0 F9000 X95.179 Y29.277
G1 F1800 X76.161 Y10.259 E163.50534
G0 F9000 X76.161 Y10.825
G1 F1800 X94.613 Y29.277 E164.80723
G0 F9000 X94.048 Y29.277
G1 F1800 X76.161 Y11.390 E166.06925
G0 F9000 X76.161 Y11.956
G1 F1800 X93.482 Y29.277 E167.29134
G0 F9000 X92.916 Y29.277
G1 F1800 X76.161 Y12.522 E168.47350
G0 F9000 X76.161 Y13.087
G1 F1800 X92.350 Y29.277 E169.61576
G0 F9000 X91.785 Y29.277
G1 F1800 X76.161 Y13.653 E170.71811
G0 F9000 X76.161 Y14.219
G1 F1800 X91.219 Y29.277 E171.78054
G0 F9000 X90.653 Y29.277
G1 F1800 X76.161 Y14.784 E172.80306
G0 F9000 X76.161 Y15.350
G1 F1800 X90.088 Y29.277 E173.78569
G0 F9000 X89.522 Y29.277
G1 F1800 X76.161 Y15.916 E174.72838
G0 F9000 X76.161 Y16.481
G1 F1800 X88.956 Y29.277 E175.63117
G0 F9000 X88.391 Y29.277
G1 F1800 X76.161 Y17.047 E176.49406
G0 F9000 X76.161 Y17.613
G1 F1800 X87.825 Y29.277 E177.31702
G0 F9000 X87.259 Y29.277
G1 F1800 X76.161 Y18.179 E178.10004
G0 F9000 X76.161 Y18.744
G1 F1800 X86.694 Y29.277 E178.84320
G0 F9000 X86.128 Y29.277
G1 F1800 X76.161 Y19.310 E179.54643
G0 F9000 X76.161 Y19.876
G1 F1800 X85.562 Y29.277 E180.20972
G0 F9000 X84.997 Y29.277
G1 F1800 X76.161 Y20.441 E180.83315
G0 F9000 X76.161 Y21.007
G1 F1800 X84.431 Y29.277 E181.41664
G0 F9000 X83.865 Y29.277
G1 F1800 X76.161 Y21.573 E181.96020
G0 F9000 X76.161 Y22.138
G1 F1800 X83.300 Y29.277 E182.46389
G0 F9000 X82.734 Y29.277
G1 F1800 X76.161 Y22.704 E182.92766
G0 F9000 X76.161 Y23.270
G1 F1800 X82.168 Y29.277 E183.35148
G0 F9000 X81.602 Y29.277
G1 F1800 X76.161 Y23.835 E183.73541
G0 F9000 X76.161 Y24.401
