;Generated with Cura_SteamEngine 15.01
; Default start code
G28 ; Home extruder
G1 Z15 F1000
M107 ; Turn off fan
G90 ; Absolute positioning
M82 ; Extruder in absolute mode
M190 S50
; Activate all used extruder
M104 T0 S275
G92 E0 ; Reset extruder position
; Wait for all used extruders to reach temperature
M109 T0 S275
;Layer count: 5
;LAYER:0
M107
G0 F7500 X6.658 Y-0.494 Z0.200
;TYPE:SKIRT
G1 F3900 X213.254 Y-0.494 E3.41853
G1 X213.254 Y168.102 E6.20827
G1 X6.658 Y168.102 E9.62680
G1 X6.658 Y-0.494 E12.41654
G0 F7500 X6.857 Y-0.295
G1 F3900 X213.055 Y-0.295 E15.82848
G1 X213.055 Y167.903 E18.61164
G1 X6.857 Y167.903 E22.02358
G1 X6.857 Y-0.295 E24.80674
G1 F1200 E21.80674
G0 F7500 X10.453 Y3.301
;TYPE:WALL-INNER
G1 F1200 E24.80674
G1 F2700 X209.459 Y3.301 E28.09968
G1 X209.459 Y164.307 E30.76383
G1 X10.453 Y164.307 E34.05677
G1 X10.453 Y3.301 E36.72092
G0 F7500 X92.281 Y74.429
G1 F2700 X90.192 Y78.885 E36.80235
G1 X89.455 Y83.682 E36.88266
G1 X90.122 Y88.487 E36.96293
G1 X92.145 Y92.968 E37.04428
G1 X95.383 Y96.818 E37.12752
G1 X99.608 Y99.776 E37.21287
G1 X104.532 Y101.646 E37.30002
G1 X109.821 Y102.304 E37.38821
G1 X115.120 Y101.708 E37.47645
G1 X120.071 Y99.898 E37.56367
G1 X124.339 Y96.990 E37.64913
G1 X127.632 Y93.180 E37.73246
G1 X129.720 Y88.724 E37.81388
G1 X130.458 Y83.927 E37.89419
G1 X129.791 Y79.121 E37.97448
G1 X127.767 Y74.640 E38.05584
G1 X124.529 Y70.791 E38.13907
G1 X120.304 Y67.833 E38.22441
G1 X115.381 Y65.963 E38.31155
G1 X110.091 Y65.305 E38.39976
G1 X104.792 Y65.900 E38.48799
G1 X99.842 Y67.712 E38.57521
G1 X95.574 Y70.619 E38.66066
G1 X92.281 Y74.429 E38.74399
G0 F7500 X92.450 Y74.538
G1 F2700 X90.384 Y78.943 E38.82450
G1 X89.656 Y83.684 E38.90386
G1 X90.315 Y88.432 E38.98318
G1 X92.315 Y92.861 E39.06359
G1 X95.518 Y96.670 E39.14594
G1 X99.701 Y99.598 E39.23043
G1 X104.581 Y101.451 E39.31681
G1 X109.822 Y102.104 E39.40420
G1 X115.074 Y101.513 E39.49165
G1 X119.979 Y99.719 E39.57807
G1 X124.205 Y96.840 E39.66269
G1 X127.463 Y93.071 E39.74512
G1 X129.528 Y88.666 E39.82562
G1 X130.257 Y83.925 E39.90499
G1 X129.598 Y79.176 E39.98433
G1 X127.597 Y74.747 E40.06475
G1 X124.394 Y70.939 E40.14708
G1 X120.211 Y68.011 E40.23157
G1 X115.332 Y66.158 E40.31793
G1 X110.090 Y65.505 E40.40534
G1 X104.838 Y66.095 E40.49279
G1 X99.934 Y67.890 E40.57920
G1 X95.708 Y70.769 E40.66381
G1 X92.450 Y74.538 E40.74625
G0 F7500 X10.254 Y3.102
G1 F2700 X209.658 Y3.102 E44.04577
G1 X209.658 Y164.506 E46.71651
G1 X10.254 Y164.506 E50.01603
G1 X10.254 Y3.102 E52.68677
G0 F7500 X10.055 Y2.903
;TYPE:WALL-OUTER
G1 F2700 X209.857 Y2.903 E55.99288
G1 X209.857 Y164.705 E58.67020
G1 X10.055 Y164.705 E61.97631
G1 X10.055 Y2.903 E64.65363
G0 F7500 X10.255 Y3.013
G0 X92.468 Y74.517
G0 X92.618 Y74.648
G1 F2700 X90.576 Y79.002 E64.73321
G1 X89.857 Y83.685 E64.81160
G1 X90.508 Y88.376 E64.88997
G1 X92.485 Y92.754 E64.96946
G1 X95.654 Y96.522 E65.05092
G1 X99.795 Y99.421 E65.13457
G1 X104.629 Y101.257 E65.22013
G1 X109.823 Y101.904 E65.30674
G1 X115.028 Y101.318 E65.39341
G1 X119.888 Y99.541 E65.47903
G1 X124.071 Y96.691 E65.56279
G1 X127.295 Y92.961 E65.64437
G1 X129.336 Y88.607 E65.72394
G1 X130.056 Y83.924 E65.80234
G1 X129.405 Y79.232 E65.88072
G1 X127.427 Y74.854 E65.96021
G1 X124.258 Y71.087 E66.04167
G1 X120.117 Y68.188 E66.12531
G1 X115.284 Y66.352 E66.21086
G1 X110.089 Y65.705 E66.29748
G1 X104.884 Y66.290 E66.38415
G1 X100.025 Y68.068 E66.46977
G1 X95.842 Y70.918 E66.55352
G1 X92.618 Y74.648 E66.63510
G0 F7500 X92.231 Y74.361
;TYPE:SKIN
G1 F2700 X21.251 Y3.381 E68.29610
G0 F7500 X21.532 Y3.381
G1 F2700 X92.362 Y74.210 E69.95357
G0 F7500 X92.493 Y74.060
G1 F2700 X21.814 Y3.381 E71.60752
G0 F7500 X22.095 Y3.381
G1 F2700 X92.623 Y73.908 E73.25792
G0 F7500 X92.754 Y73.758
G1 F2700 X22.377 Y3.381 E74.90481
G0 F7500 X22.658 Y3.381
G1 F2700 X92.884 Y73.606 E76.54814
G0 F7500 X93.014 Y73.456
G1 F2700 X22.939 Y3.381 E78.18796
G0 F7500 X23.221 Y3.381
G1 F2700 X93.145 Y73.305 E79.82424
G0 F7500 X93.275 Y73.154
G1 F2700 X23.502 Y3.381 E81.45699
G0 F7500 X23.784 Y3.381
G1 F2700 X93.405 Y73.003 E83.08620
G0 F7500 X93.536 Y72.852
G1 F2700 X24.065 Y3.381 E84.71188
G0 F7500 X24.347 Y3.381
G1 F2700 X93.667 Y72.701 E86.33403
G0 F7500 X93.797 Y72.550
G1 F2700 X24.628 Y3.381 E87.95264
G0 F7500 X24.909 Y3.381
G1 F2700 X93.928 Y72.399 E89.56774
G0 F7500 X94.058 Y72.248
G1 F2700 X25.191 Y3.381 E91.17928
G0 F7500 X25.472 Y3.381
G1 F2700 X94.189 Y72.098 E92.78732
G0 F7500 X94.319 Y71.946
G1 F2700 X25.754 Y3.381 E94.39180
G0 F7500 X26.035 Y3.381
G1 F2700 X94.450 Y71.796 E95.99277
G0 F7500 X94.580 Y71.644
G1 F2700 X26.317 Y3.381 E97.59019
G0 F7500 X26.598 Y3.381
G1 F2700 X94.711 Y71.494 E99.18409
G0 F7500 X94.841 Y71.342
G1 F2700 X26.879 Y3.381 E100.77445
G0 F7500 X27.161 Y3.381
G1 F2700 X94.972 Y71.192 E102.36129
G0 F7500 X95.103 Y71.041
G1 F2700 X27.442 Y3.381 E103.94460
G0 F7500 X27.724 Y3.381
G1 F2700 X95.233 Y70.890 E105.52437
G0 F7500 X95.363 Y70.739
G1 F2700 X28.005 Y3.381 E107.10061
G0 F7500 X28.287 Y3.381
G1 F2700 X95.494 Y70.588 E108.67331
G0 F7500 X95.653 Y70.466
G1 F2700 X28.568 Y3.381 E110.24316
G0 F7500 X28.849 Y3.381
G1 F2700 X95.821 Y70.352 E111.81035
G0 F7500 X95.989 Y70.239
G1 F2700 X29.131 Y3.381 E113.37489
G0 F7500 X29.412 Y3.381
G1 F2700 X96.155 Y70.124 E114.93673
G0 F7500 X96.323 Y70.010
G1 F2700 X29.694 Y3.381 E116.49591
G0 F7500 X29.975 Y3.381
G1 F2700 X96.491 Y69.896 E118.05243
G0 F7500 X96.658 Y69.782
G1 F2700 X30.257 Y3.381 E119.60627
G0 F7500 X30.538 Y3.381
G1 F2700 X96.825 Y69.668 E121.15744
G0 F7500 X96.993 Y69.554
G1 F2700 X30.819 Y3.381 E122.70596
G0 F7500 X31.101 Y3.381
G1 F2700 X97.160 Y69.440 E124.25180
G0 F7500 X97.327 Y69.326
G1 F2700 X31.382 Y3.381 E125.79497
G0 F7500 X31.664 Y3.381
G1 F2700 X97.495 Y69.212 E127.33547
G0 F7500 X97.662 Y69.098
G1 F2700 X31.945 Y3.381 E128.87331
G0 F7500 X32.227 Y3.381
G1 F2700 X97.830 Y68.984 E130.40848
G0 F7500 X97.997 Y68.870
G1 F2700 X32.508 Y3.381 E131.94098
G0 F7500 X32.789 Y3.381
G1 F2700 X98.164 Y68.756 E133.47081
G0 F7500 X98.332 Y68.642
G1 F2700 X33.071 Y3.381 E134.99797
G0 F7500 X33.352 Y3.381
G1 F2700 X98.499 Y68.527 E136.52246
G0 F7500 X98.666 Y68.413
G1 F2700 X33.634 Y3.381 E138.04426
G0 F7500 X33.915 Y3.381
G1 F2700 X98.834 Y68.300 E139.56342
G0 F7500 X99.002 Y68.186
G1 F2700 X34.197 Y3.381 E141.07992
G0 F7500 X34.478 Y3.381
G1 F2700 X99.168 Y68.071 E142.59372
G0 F7500 X99.336 Y67.957
G1 F2700 X34.759 Y3.381 E144.10487
G0 F7500 X35.041 Y3.381
G1 F2700 X99.504 Y67.844 E145.61336
G0 F7500 X99.671 Y67.730
G1 F2700 X35.322 Y3.381 E147.11918
G0 F7500 X35.604 Y3.381
G1 F2700 X99.847 Y67.624 E148.62252
G0 F7500 X95.641 Y70.694
G0 X92.136 Y74.547
G1 F2700 X20.969 Y3.381 E150.28788
G0 F7500 X20.688 Y3.381
G1 F2700 X92.046 Y74.739 E151.95772
G0 F7500 X91.956 Y74.930
G1 F2700 X20.407 Y3.381 E153.63203
G0 F7500 X20.125 Y3.381
G1 F2700 X91.866 Y75.122 E155.31083
G0 F7500 X91.776 Y75.313
G1 F2700 X19.844 Y3.381 E156.99410
G0 F7500 X19.562 Y3.381
G1 F2700 X91.687 Y75.505 E158.68188
G0 F7500 X91.597 Y75.697
G1 F2700 X19.281 Y3.381 E160.37414
G0 F7500 X18.999 Y3.381
G1 F2700 X91.507 Y75.888 E162.07088
G0 F7500 X91.417 Y76.080
G1 F2700 X18.718 Y3.381 E163.77210
G0 F7500 X18.437 Y3.381
G1 F2700 X91.327 Y76.272 E165.47780
G0 F7500 X91.237 Y76.463
G1 F2700 X18.155 Y3.381 E167.18798
G0 F7500 X17.874 Y3.381
G1 F2700 X91.148 Y76.655 E168.90266
G0 F7500 X91.058 Y76.846
G1 F2700 X17.592 Y3.381 E170.62181
G0 F7500 X17.311 Y3.381
G1 F2700 X90.968 Y77.038 E172.34545
G0 F7500 X90.878 Y77.230
G1 F2700 X17.029 Y3.381 E174.07358
G0 F7500 X16.748 Y3.381
G1 F2700 X90.788 Y77.421 E175.80618
G0 F7500 X90.699 Y77.613
G1 F2700 X16.467 Y3.381 E177.54328
G0 F7500 X16.185 Y3.381
G1 F2700 X90.609 Y77.805 E179.28486
G0 F7500 X90.519 Y77.996
G1 F2700 X15.904 Y3.381 E181.03092
G0 F7500 X15.622 Y3.381
G1 F2700 X90.429 Y78.187 E182.78146
G0 F7500 X90.339 Y78.379
G1 F2700 X15.341 Y3.381 E184.53648
G0 F7500 X15.059 Y3.381
G1 F2700 X90.249 Y78.570 E186.29598
G0 F7500 X90.159 Y78.762
G1 F2700 X14.778 Y3.381 E188.05996
G0 F7500 X14.497 Y3.381
G1 F2700 X90.096 Y78.980 E189.82904
G0 F7500 X90.058 Y79.224
G1 F2700 X14.215 Y3.381 E191.60383
G0 F7500 X13.934 Y3.381
G1 F2700 X90.021 Y79.468 E193.38434
G0 F7500 X89.983 Y79.712
G1 F2700 X13.652 Y3.381 E195.17055
G0 F7500 X13.371 Y3.381
G1 F2700 X89.946 Y79.956 E196.96247
G0 F7500 X89.908 Y80.200
G1 F2700 X13.089 Y3.381 E198.76010
G0 F7500 X12.808 Y3.381
G1 F2700 X89.871 Y80.444 E200.56344
G0 F7500 X89.833 Y80.687
G1 F2700 X12.527 Y3.381 E202.37247
G0 F7500 X12.245 Y3.381
G1 F2700 X89.796 Y80.931 E204.18722
G0 F7500 X89.758 Y81.175
G1 F2700 X11.964 Y3.381 E206.00767
G0 F7500 X11.682 Y3.381
G1 F2700 X89.721 Y81.419 E207.83384
G0 F7500 X89.683 Y81.663
G1 F2700 X11.401 Y3.381 E209.66571
G0 F7500 X11.119 Y3.381
G1 F2700 X89.646 Y81.907 E211.50329
G0 F7500 X89.608 Y82.151
G1 F2700 X10.838 Y3.381 E213.34658
G0 F7500 X10.557 Y3.381
G1 F2700 X89.571 Y82.395 E215.19558
G0 F7500 X89.533 Y82.639
G1 F2700 X10.532 Y3.638 E217.04427
G0 F7500 X10.532 Y3.919
G1 F2700 X89.496 Y82.883 E218.89210
G0 F7500 X89.458 Y83.127
G1 F2700 X10.532 Y4.200 E220.73905
G0 F7500 X10.532 Y4.482
G1 F2700 X89.421 Y83.371 E222.58512
G0 F7500 X89.383 Y83.615
G1 F2700 X10.532 Y4.763 E224.43031
G0 F7500 X10.532 Y5.045
G1 F2700 X89.406 Y83.919 E226.27603
G0 F7500 X89.452 Y84.246
G1 F2700 X10.532 Y5.326 E228.12283
G0 F7500 X10.532 Y5.608
G1 F2700 X89.497 Y84.573 E229.97068
G0 F7500 X89.543 Y84.900
G1 F2700 X10.532 Y5.889 E231.81961
G0 F7500 X10.532 Y6.170
G1 F2700 X89.588 Y85.226 E233.66959
G0 F7500 X89.633 Y85.553
G1 F2700 X10.532 Y6.452 E235.52062
G0 F7500 X10.532 Y6.733
G1 F2700 X89.679 Y85.880 E237.37273
G0 F7500 X89.724 Y86.207
G1 F2700 X10.532 Y7.015 E239.22589
G0 F7500 X10.532 Y7.296
G1 F2700 X89.770 Y86.534 E241.08013
G0 F7500 X89.815 Y86.860
G1 F2700 X10.532 Y7.578 E242.93541
G0 F7500 X10.532 Y7.859
G1 F2700 X89.860 Y87.187 E244.79175
G0 F7500 X89.906 Y87.515
G1 F2700 X10.532 Y8.140 E246.64918
G0 F7500 X10.532 Y8.422
G1 F2700 X89.951 Y87.841 E248.50766
G0 F7500 X89.997 Y88.168
G1 F2700 X10.532 Y8.703 E250.36721
G0 F7500 X10.532 Y8.985
G1 F2700 X90.042 Y88.495 E252.22781
G0 F7500 X90.265 Y88.999
G1 F2700 X10.532 Y9.266 E254.09363
G0 F7500 X10.532 Y9.548
G1 F2700 X90.496 Y89.511 E255.96485
G0 F7500 X90.728 Y90.025
G1 F2700 X10.532 Y9.829 E257.84151
G0 F7500 X10.532 Y10.110
G1 F2700 X90.960 Y90.538 E259.72359
G0 F7500 X91.192 Y91.052
G1 F2700 X10.532 Y10.392 E261.61111
G0 F7500 X10.532 Y10.673
G1 F2700 X91.423 Y91.564 E263.50403
G0 F7500 X91.655 Y92.078
G1 F2700 X10.532 Y10.955 E265.40238
G0 F7500 X10.532 Y11.236
G1 F2700 X91.887 Y92.591 E267.30615
G0 F7500 X92.353 Y93.338
G1 F2700 X10.532 Y11.518 E269.22083
G0 F7500 X10.532 Y11.799
G1 F2700 X93.845 Y95.112 E271.17042
G0 F7500 X96.264 Y97.531
G1 F2700 X162.959 Y164.226 E272.73114
G0 F7500 X163.240 Y164.226
G1 F2700 X97.202 Y98.188 E274.27649
G0 F7500 X98.141 Y98.845
G1 F2700 X163.521 Y164.226 E275.80645
G0 F7500 X163.803 Y164.226
G1 F2700 X99.080 Y99.503 E277.32103
G0 F7500 X99.787 Y99.929
G1 F2700 X164.084 Y164.226 E278.82563
G0 F7500 X164.366 Y164.226
G1 F2700 X100.241 Y100.101 E280.32621
G0 F7500 X100.695 Y100.274
G1 F2700 X164.647 Y164.226 E281.82275
G0 F7500 X164.929 Y164.226
G1 F2700 X101.149 Y100.446 E283.31525
G0 F7500 X101.603 Y100.619
G1 F2700 X165.210 Y164.226 E284.80371
G0 F7500 X165.491 Y164.226
G1 F2700 X102.056 Y100.791 E286.28815
G0 F7500 X102.510 Y100.963
G1 F2700 X165.773 Y164.226 E287.76856
G0 F7500 X166.054 Y164.226
G1 F2700 X102.964 Y101.136 E289.24492
G0 F7500 X103.418 Y101.308
G1 F2700 X166.336 Y164.226 E290.71726
G0 F7500 X166.617 Y164.226
G1 F2700 X103.872 Y101.481 E292.18554
G0 F7500 X104.326 Y101.653
G1 F2700 X166.899 Y164.226 E293.64981
G0 F7500 X167.180 Y164.226
G1 F2700 X104.702 Y101.748 E295.11185
G0 F7500 X105.023 Y101.788
G1 F2700 X167.461 Y164.226 E296.57295
G0 F7500 X167.743 Y164.226
G1 F2700 X105.345 Y101.828 E298.03312
G0 F7500 X105.667 Y101.868
G1 F2700 X168.024 Y164.226 E299.49234
G0 F7500 X168.306 Y164.226
G1 F2700 X105.988 Y101.908 E300.95063
G0 F7500 X106.309 Y101.948
G1 F2700 X168.587 Y164.226 E302.40799
G0 F7500 X168.869 Y164.226
G1 F2700 X106.630 Y101.988 E303.86443
G0 F7500 X106.952 Y102.028
G1 F2700 X169.150 Y164.226 E305.31992
G0 F7500 X169.431 Y164.226
G1 F2700 X107.273 Y102.068 E306.77447
G0 F7500 X107.595 Y102.108
G1 F2700 X169.713 Y164.226 E308.22808
G0 F7500 X169.994 Y164.226
G1 F2700 X107.917 Y102.148 E309.68075
G0 F7500 X108.238 Y102.188
G1 F2700 X170.276 Y164.226 E311.13249
G0 F7500 X170.557 Y164.226
G1 F2700 X108.559 Y102.228 E312.58330
G0 F7500 X108.881 Y102.268
G1 F2700 X170.839 Y164.226 E314.03317
G0 F7500 X171.120 Y164.226
G1 F2700 X109.202 Y102.308 E315.48211
G0 F7500 X109.523 Y102.348
G1 F2700 X171.401 Y164.226 E316.93011
G0 F7500 X171.683 Y164.226
G1 F2700 X109.839 Y102.382 E318.37731
G0 F7500 X110.092 Y102.354
G1 F2700 X171.964 Y164.226 E319.82517
G0 F7500 X172.246 Y164.226
G1 F2700 X110.346 Y102.326 E321.27368
G0 F7500 X110.598 Y102.297
G1 F2700 X172.527 Y164.226 E322.72288
G0 F7500 X172.809 Y164.226
G1 F2700 X110.851 Y102.268 E324.17275
G0 F7500 X111.104 Y102.240
G1 F2700 X173.090 Y164.226 E325.62328
G0 F7500 X173.371 Y164.226
G1 F2700 X111.358 Y102.212 E327.07445
G0 F7500 X111.610 Y102.183
G1 F2700 X173.653 Y164.226 E328.52631
G0 F7500 X173.934 Y164.226
G1 F2700 X111.863 Y102.155 E329.97882
G0 F7500 X112.116 Y102.126
G1 F2700 X174.216 Y164.226 E331.43202
G0 F7500 X174.497 Y164.226
G1 F2700 X112.369 Y102.097 E332.88588
G0 F7500 X112.622 Y102.069
G1 F2700 X174.779 Y164.226 E334.34041
G0 F7500 X175.060 Y164.226
G1 F2700 X112.875 Y102.041 E335.79559
G0 F7500 X113.128 Y102.012
G1 F2700 X175.341 Y164.226 E337.25144
G0 F7500 X175.623 Y164.226
G1 F2700 X113.381 Y101.983 E338.70797
G0 F7500 X113.634 Y101.955
G1 F2700 X175.904 Y164.226 E340.16515
G0 F7500 X176.186 Y164.226
G1 F2700 X113.887 Y101.927 E341.62300
G0 F7500 X114.139 Y101.898
G1 F2700 X176.467 Y164.226 E343.08153
G0 F7500 X176.749 Y164.226
G1 F2700 X114.392 Y101.870 E344.54073
G0 F7500 X114.646 Y101.841
G1 F2700 X177.030 Y164.226 E346.00058
G0 F7500 X177.311 Y164.226
G1 F2700 X114.899 Y101.813 E347.46109
G0 F7500 X115.149 Y101.782
G1 F2700 X177.593 Y164.226 E348.92233
G0 F7500 X177.874 Y164.226
G1 F2700 X115.355 Y101.706 E350.38534
G0 F7500 X115.561 Y101.631
G1 F2700 X178.156 Y164.226 E351.85012
G0 F7500 X178.437 Y164.226
G1 F2700 X115.767 Y101.556 E353.31665
G0 F7500 X115.973 Y101.481
G1 F2700 X178.719 Y164.226 E354.78495
G0 F7500 X179.000 Y164.226
G1 F2700 X116.179 Y101.405 E356.25502
G0 F7500 X116.386 Y101.330
G1 F2700 X179.281 Y164.226 E357.72683
G0 F7500 X179.563 Y164.226
G1 F2700 X116.592 Y101.254 E359.20042
G0 F7500 X116.798 Y101.179
G1 F2700 X179.844 Y164.226 E360.67576
G0 F7500 X162.677 Y164.226
G1 F2700 X10.532 Y12.080 E364.23610
G0 F7500 X10.532 Y12.362
G1 F2700 X162.396 Y164.226 E367.78985
G0 F7500 X162.114 Y164.226
G1 F2700 X10.532 Y12.643 E371.33701
G0 F7500 X10.532 Y12.925
G1 F2700 X161.833 Y164.226 E374.87759
G0 F7500 X161.551 Y164.226
G1 F2700 X10.532 Y13.206 E378.41158
G0 F7500 X10.532 Y13.488
G1 F2700 X161.270 Y164.226 E381.93898
G0 F7500 X160.989 Y164.226
G1 F2700 X10.532 Y13.769 E385.45980
G0 F7500 X10.532 Y14.050
G1 F2700 X160.707 Y164.226 E388.97404
G0 F7500 X160.426 Y164.226
G1 F2700 X10.532 Y14.332 E392.48169
G0 F7500 X10.532 Y14.613
G1 F2700 X160.144 Y164.226 E395.98276
G0 F7500 X159.863 Y164.226
G1 F2700 X10.532 Y14.895 E399.47723
G0 F7500 X10.532 Y15.176
G1 F2700 X159.581 Y164.226 E402.96512
G0 F7500 X159.300 Y164.226
G1 F2700 X10.532 Y15.458 E406.44642
G0 F7500 X10.532 Y15.739
G1 F2700 X159.019 Y164.226 E409.92115
G0 F7500 X158.737 Y164.226
G1 F2700 X10.532 Y16.020 E413.38929
G0 F7500 X10.532 Y16.302
G1 F2700 X158.456 Y164.226 E416.85084
G0 F7500 X158.174 Y164.226
G1 F2700 X10.532 Y16.583 E420.30580
G0 F7500 X10.532 Y16.865
G1 F2700 X157.893 Y164.226 E423.75418
G0 F7500 X157.611 Y164.226
G1 F2700 X10.532 Y17.146 E427.19597
G0 F7500 X10.532 Y17.428
G1 F2700 X157.330 Y164.226 E430.63117
G0 F7500 X157.049 Y164.226
G1 F2700 X10.532 Y17.709 E434.05979
G0 F7500 X10.532 Y17.990
