;Generated with Cura_SteamEngine 15.01
; Default start code
G28 ; Home extruder
G1 Z15 F100
M107 ; Turn off fan
G90 ; Absolute positioning
M82 ; Extruder in absolute mode
; Activate all used extruder
M104 T0 S240
G92 E0 ; Reset extruder position
; Wait for all used extruders to reach temperature
M109 T0 S240
;Layer count: 111
;LAYER:0
M107
;LAYER:1
M106 S40
G1 F2400 E-4.00000
G0 F3840 X84.875 Y80.375 Z0.300
;TYPE:WALL-INNER
G1 F2400 E0.00000
G1 F2760 X105.125 Y80.375 E0.42095
G1 X105.125 Y109.625 E1.02899
G1 X84.875 Y109.625 E1.44993
G1 X84.875 Y80.375 E2.05797
G0 F3840 X84.625 Y80.125
G1 F2760 X105.375 Y80.125 E2.48931
G1 X105.375 Y109.875 E3.10774
G1 X84.625 Y109.875 E3.53909
G1 X84.625 Y80.125 E4.15752
G0 F3840 X84.375 Y79.875
G1 F2760 X105.625 Y79.875 E4.59925
G1 X105.625 Y110.125 E5.22808
G1 X84.375 Y110.125 E5.66981
G1 X84.375 Y79.875 E6.29864
G0 F3840 X84.125 Y79.625
;TYPE:WALL-OUTER
G1 F2640 X105.875 Y79.625 E6.75077
G1 X105.875 Y110.375 E7.38999
G1 X84.125 Y110.375 E7.84212
G1 X84.125 Y79.625 E8.48133
G0 F3840 X85.176 Y80.463
;TYPE:SKIN
G1 F2640 X84.962 Y80.677 E8.48763
G0 F3840 X84.962 Y81.030
G1 F2640 X85.530 Y80.463 E8.50431
G0 F3840 X85.883 Y80.463
G1 F2640 X84.962 Y81.384 E8.53138
G0 F3840 X84.962 Y81.738
G1 F2640 X86.237 Y80.463 E8.56887
G0 F3840 X86.590 Y80.463
G1 F2640 X84.962 Y82.091 E8.61673
G0 F3840 X84.962 Y82.445
G1 F2640 X86.944 Y80.463 E8.67499
G0 F3840 X87.297 Y80.463
G1 F2640 X84.962 Y82.798 E8.74364
G0 F3840 X84.962 Y83.152
G1 F2640 X87.651 Y80.463 E8.82269
G0 F3840 X88.005 Y80.463
G1 F2640 X84.962 Y83.505 E8.91213
G0 F3840 X84.962 Y83.859
G1 F2640 X88.358 Y80.463 E9.01197
G0 F3840 X88.712 Y80.463
G1 F2640 X84.962 Y84.212 E9.12220
G0 F3840 X84.962 Y84.566
G1 F2640 X89.065 Y80.463 E9.24282
G0 F3840 X89.419 Y80.463
G1 F2640 X84.962 Y84.919 E9.37383
G0 F3840 X84.962 Y85.273
G1 F2640 X89.772 Y80.463 E9.51524
G0 F3840 X90.126 Y80.463
G1 F2640 X84.962 Y85.627 E9.66705
G0 F3840 X84.962 Y85.980
G1 F2640 X90.479 Y80.463 E9.82924
G0 F3840 X90.833 Y80.463
G1 F2640 X84.962 Y86.334 E10.00183
G0 F3840 X84.962 Y86.687
G1 F2640 X91.187 Y80.463 E10.18482
G0 F3840 X91.540 Y80.463
G1 F2640 X84.962 Y87.041 E10.37820
G0 F3840 X84.962 Y87.394
G1 F2640 X91.894 Y80.463 E10.58197
G0 F3840 X92.247 Y80.463
G1 F2640 X84.962 Y87.748 E10.79614
G0 F3840 X84.962 Y88.101
G1 F2640 X92.601 Y80.463 E11.02070
G0 F3840 X92.954 Y80.463
G1 F2640 X84.962 Y88.455 E11.25565
G0 F3840 X84.962 Y88.809
G1 F2640 X93.308 Y80.463 E11.50100
G0 F3840 X93.661 Y80.463
G1 F2640 X84.962 Y89.162 E11.75674
G0 F3840 X84.962 Y89.516
G1 F2640 X94.015 Y80.463 E12.02288
G0 F3840 X94.369 Y80.463
G1 F2640 X84.962 Y89.869 E12.29941
G0 F3840 X84.962 Y90.223
G1 F2640 X94.722 Y80.463 E12.58634
G0 F3840 X95.076 Y80.463
G1 F2640 X84.962 Y90.576 E12.88365
G0 F3840 X84.962 Y90.930
G1 F2640 X95.429 Y80.463 E13.19136
G0 F3840 X95.783 Y80.463
G1 F2640 X84.962 Y91.283 E13.50947
G0 F3840 X84.962 Y91.637
G1 F2640 X96.136 Y80.463 E13.83796
G0 F3840 X96.490 Y80.463
G1 F2640 X84.962 Y91.991 E14.17686
G0 F3840 X84.962 Y92.344
G1 F2640 X96.843 Y80.463 E14.52614
G0 F3840 X97.197 Y80.463
G1 F2640 X84.962 Y92.698 E14.88582
G0 F3840 X84.962 Y93.051
G1 F2640 X97.551 Y80.463 E15.25590
G0 F3840 X97.904 Y80.463
G1 F2640 X84.962 Y93.405 E15.63637
G0 F3840 X84.962 Y93.758
G1 F2640 X98.258 Y80.463 E16.02723
G0 F3840 X98.611 Y80.463
G1 F2640 X84.962 Y94.112 E16.42849
G0 F3840 X84.962 Y94.465
G1 F2640 X98.965 Y80.463 E16.84014
G0 F3840 X99.318 Y80.463
G1 F2640 X84.962 Y94.819 E17.26217
G0 F3840 X84.963 Y95.172
G1 F2640 X99.672 Y80.463 E17.69459
G0 F3840 X100.025 Y80.463
G1 F2640 X84.963 Y95.525 E18.13738
G0 F3840 X84.963 Y95.879
G1 F2640 X100.379 Y80.463 E18.59059
G0 F3840 X100.733 Y80.463
G1 F2640 X84.963 Y96.232 E19.05418
G0 F3840 X84.963 Y96.586
G1 F2640 X101.086 Y80.463 E19.52816
G0 F3840 X101.440 Y80.463
G1 F2640 X84.963 Y96.940 E20.01256
G0 F3840 X84.963 Y97.293
G1 F2640 X101.793 Y80.463 E20.50733
G0 F3840 X102.147 Y80.463
G1 F2640 X84.963 Y97.647 E21.01250
G0 F3840 X84.963 Y98.000
G1 F2640 X102.500 Y80.463 E21.52806
G0 F3840 X102.854 Y80.463
G1 F2640 X84.963 Y98.354 E22.05402
G0 F3840 X84.963 Y98.707
G1 F2640 X103.207 Y80.463 E22.59036
G0 F3840 X103.561 Y80.463
G1 F2640 X84.963 Y99.061 E23.13710
G0 F3840 X84.963 Y99.414
G1 F2640 X103.914 Y80.463 E23.69423
G0 F3840 X104.268 Y80.463
G1 F2640 X84.963 Y99.768 E24.26176
G0 F3840 X84.963 Y100.122
G1 F2640 X104.622 Y80.463 E24.83969
G0 F3840 X104.975 Y80.463
G1 F2640 X84.963 Y100.475 E25.42801
G0 F3840 X84.963 Y100.829
G1 F2640 X105.036 Y80.755 E26.01813
G0 F3840 X105.036 Y81.109
G1 F2640 X84.963 Y101.182 E26.60824
G0 F3840 X84.963 Y101.536
G1 F2640 X105.036 Y81.462 E27.19836
G0 F3840 X105.036 Y81.816
G1 F2640 X84.963 Y101.889 E27.78847
G0 F3840 X84.963 Y102.243
G1 F2640 X105.036 Y82.170 E28.37857
G0 F3840 X105.036 Y82.523
G1 F2640 X84.963 Y102.596 E28.96868
G0 F3840 X84.963 Y102.950
G1 F2640 X105.036 Y82.877 E29.55879
G0 F3840 X105.036 Y83.230
G1 F2640 X84.963 Y103.304 E30.14891
G0 F3840 X84.963 Y103.657
G1 F2640 X105.036 Y83.584 E30.73902
G0 F3840 X105.036 Y83.937
G1 F2640 X84.963 Y104.011 E31.32914
G0 F3840 X84.963 Y104.364
G1 F2640 X105.036 Y84.291 E31.91925
G0 F3840 X105.036 Y84.644
G1 F2640 X84.963 Y104.718 E32.50937
G0 F3840 X84.963 Y105.071
G1 F2640 X105.036 Y84.998 E33.09948
G0 F3840 X105.036 Y85.352
G1 F2640 X84.963 Y105.425 E33.68959
G0 F3840 X84.963 Y105.778
G1 F2640 X105.036 Y85.705 E34.27970
G0 F3840 X105.036 Y86.059
G1 F2640 X84.963 Y106.132 E34.86980
G0 F3840 X84.963 Y106.486
G1 F2640 X105.036 Y86.412 E35.45993
G0 F3840 X105.036 Y86.766
G1 F2640 X84.963 Y106.839 E36.05003
G0 F3840 X84.963 Y107.193
G1 F2640 X105.036 Y87.119 E36.64016
G0 F3840 X105.036 Y87.473
G1 F2640 X84.963 Y107.546 E37.23026
G0 F3840 X84.963 Y107.900
G1 F2640 X105.036 Y87.826 E37.82039
G0 F3840 X105.036 Y88.180
G1 F2640 X84.963 Y108.253 E38.41049
G0 F3840 X84.963 Y108.607
G1 F2640 X105.036 Y88.534 E39.00060
G0 F3840 X105.036 Y88.887
G1 F2640 X84.963 Y108.960 E39.59071
G0 F3840 X84.963 Y109.314
G1 F2640 X105.036 Y89.241 E40.18082
G0 F3840 X105.036 Y89.594
G1 F2640 X85.094 Y109.536 E40.76707
G0 F3840 X85.448 Y109.536
G1 F2640 X105.036 Y89.948 E41.34292
G0 F3840 X105.036 Y90.301
G1 F2640 X85.801 Y109.536 E41.90840
G0 F3840 X86.155 Y109.536
G1 F2640 X105.036 Y90.655 E42.46346
G0 F3840 X105.036 Y91.008
G1 F2640 X86.508 Y109.536 E43.00815
G0 F3840 X86.862 Y109.536
G1 F2640 X105.036 Y91.362 E43.54243
G0 F3840 X105.036 Y91.715
G1 F2640 X87.215 Y109.536 E44.06633
G0 F3840 X87.569 Y109.536
G1 F2640 X105.036 Y92.069 E44.57983
G0 F3840 X105.036 Y92.423
G1 F2640 X87.923 Y109.536 E45.08292
G0 F3840 X88.276 Y109.536
G1 F2640 X105.036 Y92.776 E45.57563
G0 F3840 X105.036 Y93.130
G1 F2640 X88.630 Y109.536 E46.05794
G0 F3840 X88.983 Y109.536
G1 F2640 X105.036 Y93.483 E46.52986
G0 F3840 X105.036 Y93.837
G1 F2640 X89.337 Y109.536 E46.99138
G0 F3840 X89.690 Y109.536
G1 F2640 X105.036 Y94.190 E47.44253
G0 F3840 X105.036 Y94.544
G1 F2640 X90.044 Y109.536 E47.88326
G0 F3840 X90.397 Y109.536
G1 F2640 X105.036 Y94.897 E48.31362
G0 F3840 X105.036 Y95.251
G1 F2640 X90.751 Y109.536 E48.73357
G0 F3840 X91.105 Y109.536
G1 F2640 X105.036 Y95.605 E49.14312
G0 F3840 X105.036 Y95.958
G1 F2640 X91.458 Y109.536 E49.54228
G0 F3840 X91.812 Y109.536
G1 F2640 X105.036 Y96.312 E49.93105
G0 F3840 X105.036 Y96.665
G1 F2640 X92.165 Y109.536 E50.30943
G0 F3840 X92.519 Y109.536
G1 F2640 X105.036 Y97.019 E50.67740
G0 F3840 X105.036 Y97.372
G1 F2640 X92.872 Y109.536 E51.03500
G0 F3840 X93.226 Y109.536
G1 F2640 X105.036 Y97.726 E51.38219
G0 F3840 X105.036 Y98.079
G1 F2640 X93.579 Y109.536 E51.71901
G0 F3840 X93.933 Y109.536
G1 F2640 X105.036 Y98.433 E52.04541
G0 F3840 X105.036 Y98.787
G1 F2640 X94.287 Y109.536 E52.36141
G0 F3840 X94.640 Y109.536
G1 F2640 X105.036 Y99.140 E52.66704
G0 F3840 X105.036 Y99.494
G1 F2640 X94.994 Y109.536 E52.96225
G0 F3840 X95.347 Y109.536
G1 F2640 X105.036 Y99.847 E53.24709
G0 F3840 X105.036 Y100.201
G1 F2640 X95.701 Y109.536 E53.52152
G0 F3840 X96.054 Y109.536
G1 F2640 X105.036 Y100.554 E53.78557
G0 F3840 X105.036 Y100.908
G1 F2640 X96.408 Y109.536 E54.03922
G0 F3840 X96.761 Y109.536
G1 F2640 X105.036 Y101.261 E54.28249
G0 F3840 X105.036 Y101.615
G1 F2640 X97.115 Y109.536 E54.51535
G0 F3840 X97.469 Y109.536
G1 F2640 X105.036 Y101.969 E54.73781
G0 F3840 X105.036 Y102.322
G1 F2640 X97.822 Y109.536 E54.94989
G0 F3840 X98.176 Y109.536
G1 F2640 X105.036 Y102.676 E55.15156
G0 F3840 X105.036 Y103.029
G1 F2640 X98.529 Y109.536 E55.34285
G0 F3840 X98.883 Y109.536
G1 F2640 X105.036 Y103.383 E55.52374
G0 F3840 X105.036 Y103.736
G1 F2640 X99.236 Y109.536 E55.69425
G0 F3840 X99.590 Y109.536
G1 F2640 X105.036 Y104.090 E55.85435
G0 F3840 X105.036 Y104.443
G1 F2640 X99.943 Y109.536 E56.00407
G0 F3840 X100.297 Y109.536
G1 F2640 X105.036 Y104.797 E56.14339
G0 F3840 X105.036 Y105.151
G1 F2640 X100.650 Y109.536 E56.27231
G0 F3840 X101.004 Y109.536
G1 F2640 X105.036 Y105.504 E56.39085
G0 F3840 X105.036 Y105.858
G1 F2640 X101.358 Y109.536 E56.49897
G0 F3840 X101.711 Y109.536
G1 F2640 X105.036 Y106.211 E56.59672
G0 F3840 X105.036 Y106.565
G1 F2640 X102.065 Y109.536 E56.68406
G0 F3840 X102.418 Y109.536
G1 F2640 X105.036 Y106.918 E56.76103
G0 F3840 X105.036 Y107.272
G1 F2640 X102.772 Y109.536 E56.82759
G0 F3840 X103.125 Y109.536
G1 F2640 X105.036 Y107.625 E56.88377
G0 F3840 X105.036 Y107.979
G1 F2640 X103.479 Y109.536 E56.92954
G0 F3840 X103.832 Y109.536
G1 F2640 X105.036 Y108.333 E56.96492
G0 F3840 X105.036 Y108.686
G1 F2640 X104.186 Y109.536 E56.98991
G0 F3840 X104.540 Y109.536
G1 F2640 X105.036 Y109.040 E57.00449
G0 F3840 X105.036 Y109.393
G1 F2640 X104.893 Y109.536 E57.00869
;LAYER:2
M106 S84
G0 F3840 X105.125 Y109.625 Z0.500
;TYPE:WALL-INNER
G1 F2940 X84.875 Y109.625 E57.42964
G1 X84.875 Y80.375 E58.03768
G1 X105.125 Y80.375 E58.45863
G1 X105.125 Y109.625 E59.06666
G0 F3840 X105.375 Y109.875
G1 F2940 X84.625 Y109.875 E59.49801
G1 X84.625 Y80.125 E60.11644
G1 X105.375 Y80.125 E60.54778
G1 X105.375 Y109.875 E61.16621
G0 F3840 X105.625 Y110.125
G1 F2940 X84.375 Y110.125 E61.60795
G1 X84.375 Y79.875 E62.23677
G1 X105.625 Y79.875 E62.67851
G1 X105.625 Y110.125 E63.30733
G0 F3840 X105.875 Y110.375
;TYPE:WALL-OUTER
G1 F2640 X84.125 Y110.375 E63.75946
G1 X84.125 Y79.625 E64.39868
G1 X105.875 Y79.625 E64.85081
G1 X105.875 Y110.375 E65.49003
G0 F3840 X105.037 Y109.456
;TYPE:SKIN
G1 F2640 X84.961 Y89.381 E66.08021
G0 F3840 X84.961 Y89.734
G1 F2640 X104.762 Y109.535 E66.66232
G0 F3840 X104.409 Y109.535
G1 F2640 X84.961 Y90.088 E67.23404
G0 F3840 X84.961 Y90.441
G1 F2640 X104.055 Y109.535 E67.79537
G0 F3840 X103.702 Y109.535
G1 F2640 X84.961 Y90.795 E68.34630
G0 F3840 X84.961 Y91.148
G1 F2640 X103.348 Y109.535 E68.88684
G0 F3840 X102.995 Y109.535
G1 F2640 X84.961 Y91.502 E69.41699
G0 F3840 X84.961 Y91.855
G1 F2640 X102.641 Y109.535 E69.93675
G0 F3840 X102.287 Y109.535
G1 F2640 X84.961 Y92.209 E70.44610
G0 F3840 X84.961 Y92.563
G1 F2640 X101.934 Y109.535 E70.94506
G0 F3840 X101.580 Y109.535
G1 F2640 X84.961 Y92.916 E71.43363
G0 F3840 X84.961 Y93.270
G1 F2640 X101.227 Y109.535 E71.91180
G0 F3840 X100.873 Y109.535
G1 F2640 X84.961 Y93.623 E72.37959
G0 F3840 X84.961 Y93.977
G1 F2640 X100.520 Y109.535 E72.83698
G0 F3840 X100.166 Y109.535
G1 F2640 X84.961 Y94.330 E73.28397
G0 F3840 X84.961 Y94.684
G1 F2640 X99.813 Y109.535 E73.72058
G0 F3840 X99.459 Y109.535
G1 F2640 X84.962 Y95.038 E74.14676
G0 F3840 X84.962 Y95.392
G1 F2640 X99.105 Y109.535 E74.56254
G0 F3840 X98.752 Y109.535
G1 F2640 X84.962 Y95.745 E74.96794
G0 F3840 X84.962 Y96.099
G1 F2640 X98.398 Y109.535 E75.36293
G0 F3840 X98.045 Y109.535
G1 F2640 X84.962 Y96.452 E75.74755
G0 F3840 X84.962 Y96.806
G1 F2640 X97.691 Y109.535 E76.12176
G0 F3840 X97.338 Y109.535
G1 F2640 X84.962 Y97.160 E76.48557
G0 F3840 X84.962 Y97.513
G1 F2640 X96.984 Y109.535 E76.83900
G0 F3840 X96.631 Y109.535
G1 F2640 X84.962 Y97.867 E77.18203
G0 F3840 X84.962 Y98.220
G1 F2640 X96.277 Y109.535 E77.51467
G0 F3840 X95.923 Y109.535
G1 F2640 X84.962 Y98.574 E77.83690
G0 F3840 X84.962 Y98.927
G1 F2640 X95.570 Y109.535 E78.14875
G0 F3840 X95.216 Y109.535
G1 F2640 X84.962 Y99.281 E78.45020
G0 F3840 X84.962 Y99.634
G1 F2640 X94.863 Y109.535 E78.74127
G0 F3840 X94.509 Y109.535
G1 F2640 X84.962 Y99.988 E79.02194
G0 F3840 X84.961 Y89.027
G1 F2640 X105.037 Y109.103 E79.61213
G0 F3840 X105.037 Y108.749
G1 F2640 X84.961 Y88.674 E80.20231
G0 F3840 X84.961 Y88.320
G1 F2640 X105.037 Y108.395 E80.79249
G0 F3840 X105.037 Y108.042
G1 F2640 X84.961 Y87.966 E81.38269
G0 F3840 X84.961 Y87.613
G1 F2640 X105.037 Y107.688 E81.97287
G0 F3840 X105.037 Y107.335
G1 F2640 X84.961 Y87.259 E82.56307
G0 F3840 X84.961 Y86.906
G1 F2640 X105.037 Y106.981 E83.15325
G0 F3840 X105.037 Y106.628
G1 F2640 X84.961 Y86.552 E83.74344
G0 F3840 X84.961 Y86.199
G1 F2640 X105.037 Y106.274 E84.33363
G0 F3840 X105.037 Y105.921
G1 F2640 X84.961 Y85.845 E84.92382
G0 F3840 X84.961 Y85.492
G1 F2640 X105.037 Y105.567 E85.51400
G0 F3840 X105.037 Y105.213
G1 F2640 X84.961 Y85.138 E86.10418
G0 F3840 X84.961 Y84.784
G1 F2640 X105.037 Y104.860 E86.69438
G0 F3840 X105.037 Y104.506
G1 F2640 X84.961 Y84.431 E87.28456
G0 F3840 X84.961 Y84.077
G1 F2640 X105.037 Y104.153 E87.87476
G0 F3840 X105.037 Y103.799
G1 F2640 X84.961 Y83.724 E88.46494
G0 F3840 X84.961 Y83.370
G1 F2640 X105.037 Y103.446 E89.05513
G0 F3840 X105.037 Y103.092
G1 F2640 X84.961 Y83.017 E89.64532
G0 F3840 X84.961 Y82.663
G1 F2640 X105.037 Y102.739 E90.23551
G0 F3840 X105.037 Y102.385
G1 F2640 X84.961 Y82.310 E90.82569
G0 F3840 X84.961 Y81.956
G1 F2640 X105.037 Y102.031 E91.41587
G0 F3840 X105.037 Y101.678
G1 F2640 X84.961 Y81.602 E92.00607
G0 F3840 X84.961 Y81.249
G1 F2640 X105.037 Y101.324 E92.59625
G0 F3840 X105.037 Y100.971
G1 F2640 X84.961 Y80.895 E93.18645
G0 F3840 X84.961 Y80.542
G1 F2640 X105.037 Y100.617 E93.77663
G0 F3840 X105.037 Y100.264
G1 F2640 X85.236 Y80.463 E94.35874
G0 F3840 X85.589 Y80.463
G1 F2640 X105.037 Y99.910 E94.93046
G0 F3840 X105.037 Y99.557
G1 F2640 X85.943 Y80.463 E95.49179
G0 F3840 X86.296 Y80.463
G1 F2640 X105.037 Y99.203 E96.04272
G0 F3840 X105.037 Y98.849
G1 F2640 X86.650 Y80.463 E96.58325
G0 F3840 X87.003 Y80.463
G1 F2640 X105.037 Y98.496 E97.11340
G0 F3840 X105.037 Y98.142
G1 F2640 X87.357 Y80.463 E97.63314
G0 F3840 X87.710 Y80.463
G1 F2640 X105.037 Y97.789 E98.14251
G0 F3840 X105.037 Y97.435
G1 F2640 X88.064 Y80.463 E98.64147
G0 F3840 X88.418 Y80.463
G1 F2640 X105.037 Y97.082 E99.13003
G0 F3840 X105.037 Y96.728
G1 F2640 X88.771 Y80.463 E99.60821
G0 F3840 X89.125 Y80.463
G1 F2640 X105.037 Y96.375 E100.07599
G0 F3840 X105.037 Y96.021
G1 F2640 X89.478 Y80.463 E100.53338
G0 F3840 X89.832 Y80.463
G1 F2640 X105.037 Y95.668 E100.98038
G0 F3840 X105.037 Y95.314
G1 F2640 X90.185 Y80.463 E101.41698
G0 F3840 X90.539 Y80.463
G1 F2640 X105.037 Y94.960 E101.84318
G0 F3840 X105.037 Y94.607
G1 F2640 X90.892 Y80.463 E102.25900
G0 F3840 X91.246 Y80.463
G1 F2640 X105.037 Y94.253 E102.66442
G0 F3840 X105.037 Y93.900
G1 F2640 X91.600 Y80.463 E103.05944
G0 F3840 X91.953 Y80.463
G1 F2640 X105.037 Y93.546 E103.44407
G0 F3840 X105.037 Y93.193
G1 F2640 X92.307 Y80.463 E103.81831
G0 F3840 X92.660 Y80.463
G1 F2640 X105.037 Y92.839 E104.18215
G0 F3840 X105.037 Y92.486
G1 F2640 X93.014 Y80.463 E104.53561
G0 F3840 X93.367 Y80.463
G1 F2640 X105.037 Y92.132 E104.87867
G0 F3840 X105.037 Y91.778
G1 F2640 X93.721 Y80.463 E105.21132
G0 F3840 X94.074 Y80.463
G1 F2640 X105.037 Y91.425 E105.53360
G0 F3840 X105.037 Y91.071
G1 F2640 X94.428 Y80.463 E105.84547
G0 F3840 X94.782 Y80.463
G1 F2640 X105.037 Y90.718 E106.14694
G0 F3840 X105.037 Y90.364
G1 F2640 X95.135 Y80.463 E106.43803
G0 F3840 X95.489 Y80.463
G1 F2640 X105.037 Y90.011 E106.71872
G0 F3840 X105.037 Y89.657
G1 F2640 X95.842 Y80.463 E106.98902
G0 F3840 X96.196 Y80.463
G1 F2640 X105.037 Y89.304 E107.24893
G0 F3840 X105.037 Y88.950
G1 F2640 X96.549 Y80.463 E107.49845
G0 F3840 X96.903 Y80.463
G1 F2640 X105.037 Y88.596 E107.73756
G0 F3840 X105.037 Y88.243
G1 F2640 X97.256 Y80.463 E107.96629
G0 F3840 X97.610 Y80.463
G1 F2640 X105.037 Y87.889 E108.18461
G0 F3840 X105.037 Y87.536
