;Generated with Cura_SteamEngine 15.01
; Default start code
G28 ; Home extruder
G1 Z15 F100
M107 ; Turn off fan
G90 ; Absolute positioning
M82 ; Extruder in absolute mode
; Activate all used extruder
M104 T0 S245
G92 E0 ; Reset extruder position
; Wait for all used extruders to reach temperature
M109 T0 S245
;Layer count: 64
;LAYER:0
M107
G0 F7680 X70.127 Y44.886 Z0.300
G0 X69.895 Y45.416
;TYPE:SKIRT
G1 F3180 X70.127 Y44.886 E0.05412
G1 X71.843 Y42.652 E0.31763
G1 X72.175 Y42.208 E0.36949
G1 X74.919 Y40.102 E0.69306
G1 X78.094 Y38.787 E1.01453
G1 X81.500 Y38.340 E1.33588
G1 X84.905 Y38.787 E1.65713
G1 X88.081 Y40.102 E1.97868
G1 X90.805 Y42.194 E2.29997
G1 X92.559 Y44.478 E2.56936
G1 X92.906 Y44.941 E2.62348
G1 X93.499 Y46.373 E2.76847
G1 X93.895 Y45.416 E2.86535
G1 X94.127 Y44.886 E2.91947
G1 X95.843 Y42.652 E3.18299
G1 X96.175 Y42.208 E3.23485
G1 X98.919 Y40.102 E3.55842
G1 X102.094 Y38.787 E3.87989
G1 X105.500 Y38.340 E4.20123
G1 X108.905 Y38.787 E4.52248
G1 X112.081 Y40.102 E4.84403
G1 X114.805 Y42.194 E5.16532
G1 X116.559 Y44.478 E5.43471
G1 X116.906 Y44.941 E5.48884
G1 X117.975 Y47.523 E5.75025
G1 X118.207 Y48.052 E5.80428
G1 X118.584 Y50.918 E6.07469
G1 X118.665 Y51.468 E6.12669
G1 X118.284 Y54.364 E6.39993
G1 X118.200 Y54.934 E6.45383
G1 X117.104 Y57.583 E6.72200
G1 X116.871 Y58.114 E6.77624
G1 X115.184 Y60.310 E7.03528
G1 X114.824 Y60.790 E7.09141
G1 X112.081 Y62.897 E7.41496
G1 X108.906 Y64.212 E7.73643
G1 X105.500 Y64.661 E8.05780
G1 X102.093 Y64.212 E8.37926
G1 X98.919 Y62.897 E8.70064
G1 X96.195 Y60.805 E9.02193
G1 X94.440 Y58.522 E9.29130
G1 X94.092 Y58.058 E9.34556
G1 X93.500 Y56.627 E9.49042
G1 X93.104 Y57.583 E9.58722
G1 X92.871 Y58.114 E9.64146
G1 X91.184 Y60.310 E9.90050
G1 X90.824 Y60.790 E9.95663
G1 X88.081 Y62.897 E10.28018
G1 X84.906 Y64.212 E10.60165
G1 X81.500 Y64.661 E10.92302
G1 X78.093 Y64.212 E11.24448
G1 X74.919 Y62.897 E11.56586
G1 X72.195 Y60.805 E11.88715
G1 X70.440 Y58.522 E12.15652
G1 X70.092 Y58.058 E12.21078
G1 X69.008 Y55.438 E12.47601
G1 X68.792 Y54.946 E12.52627
G1 X68.415 Y52.070 E12.79761
G1 X68.335 Y51.533 E12.84840
G1 X68.715 Y48.636 E13.12171
G1 X68.799 Y48.064 E13.17580
G1 X69.895 Y45.416 E13.44388
G0 F7680 X70.585 Y45.710
G1 F3180 X70.778 Y45.270 E13.48882
G1 X72.438 Y43.108 E13.74381
G1 X72.714 Y42.741 E13.78676
G1 X75.297 Y40.757 E14.09144
G1 X78.289 Y39.518 E14.39437
G1 X81.500 Y39.096 E14.69732
G1 X84.709 Y39.518 E15.00009
G1 X87.703 Y40.757 E15.30319
G1 X90.270 Y42.729 E15.60600
G1 X91.961 Y44.932 E15.86579
G1 X92.250 Y45.316 E15.91074
G1 X93.271 Y47.785 E16.16067
G1 X93.477 Y48.256 E16.20876
G1 X93.502 Y48.444 E16.22650
G1 X93.528 Y48.265 E16.24342
G1 X94.585 Y45.710 E16.50207
G1 X94.778 Y45.270 E16.54702
G1 X96.438 Y43.108 E16.80200
G1 X96.714 Y42.741 E16.84495
G1 X99.297 Y40.757 E17.14963
G1 X102.289 Y39.518 E17.45256
G1 X105.500 Y39.096 E17.75551
G1 X108.709 Y39.518 E18.05828
G1 X111.703 Y40.757 E18.36139
G1 X114.270 Y42.729 E18.66419
G1 X115.961 Y44.932 E18.92398
G1 X116.250 Y45.316 E18.96894
G1 X117.271 Y47.785 E19.21887
G1 X117.477 Y48.256 E19.26695
G1 X117.834 Y50.975 E19.52348
G1 X117.907 Y51.474 E19.57066
G1 X117.541 Y54.261 E19.83361
G1 X117.471 Y54.733 E19.87824
G1 X116.414 Y57.290 E20.13706
G1 X116.221 Y57.730 E20.18201
G1 X114.584 Y59.860 E20.43331
G1 X114.286 Y60.258 E20.47982
G1 X111.703 Y62.242 E20.78449
G1 X108.710 Y63.481 E21.08751
G1 X105.500 Y63.904 E21.39038
G1 X102.289 Y63.481 E21.69335
G1 X99.297 Y62.242 E21.99628
G1 X96.730 Y60.270 E22.29908
G1 X95.038 Y58.069 E22.55878
G1 X94.749 Y57.684 E22.60381
G1 X93.711 Y55.174 E22.85789
G1 X93.522 Y54.743 E22.90192
G1 X93.497 Y54.555 E22.91966
G1 X93.471 Y54.733 E22.93649
G1 X92.414 Y57.290 E23.19531
G1 X92.221 Y57.730 E23.24025
G1 X90.584 Y59.860 E23.49155
G1 X90.286 Y60.258 E23.53806
G1 X87.703 Y62.242 E23.84273
G1 X84.710 Y63.481 E24.14575
G1 X81.500 Y63.904 E24.44863
G1 X78.289 Y63.481 E24.75159
G1 X75.297 Y62.242 E25.05452
G1 X72.730 Y60.270 E25.35733
G1 X71.038 Y58.069 E25.61702
G1 X70.749 Y57.684 E25.66206
G1 X69.711 Y55.174 E25.91614
G1 X69.522 Y54.743 E25.96016
G1 X69.166 Y52.025 E26.21659
G1 X69.093 Y51.527 E26.26367
G1 X69.458 Y48.739 E26.52670
G1 X69.528 Y48.265 E26.57152
G1 X70.585 Y45.710 E26.83017
G1 F2400 E20.83017
G0 F7680 X74.685 Y47.570
;TYPE:WALL-INNER
G1 F2400 E26.83017
G1 F3180 X75.940 Y45.937 E27.02282
G1 X77.567 Y44.688 E27.21470
G1 X79.465 Y43.901 E27.40690
G1 X81.499 Y43.634 E27.59880
G1 X83.536 Y43.902 E27.79099
G1 X85.432 Y44.687 E27.98295
G1 X87.061 Y45.938 E28.17509
G1 X88.311 Y47.566 E28.36709
G1 X89.098 Y49.467 E28.55955
G1 X89.365 Y51.502 E28.75155
G1 X89.098 Y53.531 E28.94298
G1 X88.312 Y55.433 E29.13550
G1 X87.059 Y57.062 E29.32775
G1 X85.432 Y58.312 E29.51967
G1 X83.536 Y59.097 E29.71163
G1 X81.500 Y59.366 E29.90375
G1 X79.464 Y59.097 E30.09586
G1 X77.567 Y58.311 E30.28794
G1 X75.938 Y57.061 E30.48002
G1 X74.690 Y55.436 E30.67168
G1 X73.901 Y53.531 E30.86456
G1 X73.635 Y51.497 E31.05645
G1 X73.901 Y49.465 E31.24815
G1 X74.685 Y47.570 E31.43999
G0 F7680 X77.208 Y48.730
G1 F3180 X77.053 Y48.931 E31.46374
G1 X76.636 Y49.937 E31.56561
G1 X76.540 Y50.172 E31.58935
G1 X76.400 Y51.246 E31.69067
G1 X76.365 Y51.498 E31.71447
G1 X76.507 Y52.579 E31.81646
G1 X76.541 Y52.830 E31.84015
G1 X76.955 Y53.832 E31.94157
G1 X77.052 Y54.067 E31.96535
G1 X77.715 Y54.931 E32.06723
G1 X77.870 Y55.131 E32.09090
G1 X78.933 Y55.947 E32.21625
G1 X80.170 Y56.459 E32.34149
G1 X81.500 Y56.635 E32.46699
G1 X82.829 Y56.459 E32.59239
G1 X84.067 Y55.947 E32.71771
G1 X85.130 Y55.130 E32.84313
G1 X85.791 Y54.270 E32.94459
G1 X85.946 Y54.068 E32.96841
G1 X86.363 Y53.061 E33.07036
G1 X86.459 Y52.828 E33.09394
G1 X86.635 Y51.500 E33.21925
G1 X86.492 Y50.419 E33.32125
G1 X86.458 Y50.169 E33.34485
G1 X86.043 Y49.168 E33.44622
G1 X85.947 Y48.934 E33.46988
G1 X85.284 Y48.068 E33.57190
G1 X85.129 Y47.868 E33.59557
G1 X84.067 Y47.052 E33.72086
G1 X82.828 Y46.540 E33.84626
G1 X81.500 Y46.365 E33.97156
G1 X80.171 Y46.540 E34.09696
G1 X78.933 Y47.052 E34.22228
G1 X77.869 Y47.869 E34.34777
G1 X77.208 Y48.730 E34.44931
G0 F7680 X77.802 Y49.188
;TYPE:WALL-OUTER
G1 F3180 X77.708 Y49.310 E34.46371
G1 X77.271 Y50.366 E34.57062
G1 X77.142 Y51.346 E34.66308
G1 X77.122 Y51.499 E34.67752
G1 X77.250 Y52.480 E34.77006
G1 X77.271 Y52.633 E34.78451
G1 X77.707 Y53.689 E34.89138
G1 X78.404 Y54.595 E34.99831
G1 X79.311 Y55.292 E35.10531
G1 X80.366 Y55.728 E35.21210
G1 X81.500 Y55.878 E35.31910
G1 X82.633 Y55.728 E35.42601
G1 X83.689 Y55.292 E35.53288
G1 X84.595 Y54.595 E35.63981
G1 X85.292 Y53.689 E35.74674
G1 X85.728 Y52.633 E35.85361
G1 X85.878 Y51.500 E35.96052
G1 X85.728 Y50.366 E36.06752
G1 X85.292 Y49.311 E36.17431
G1 X84.689 Y48.525 E36.26698
G1 X84.595 Y48.403 E36.28139
G1 X83.689 Y47.707 E36.38826
G1 X82.633 Y47.271 E36.49513
G1 X81.500 Y47.122 E36.60203
G1 X80.366 Y47.271 E36.70902
G1 X79.311 Y47.707 E36.81580
G1 X78.404 Y48.404 E36.92281
G1 X77.802 Y49.188 E37.01527
G0 F7680 X77.433 Y48.891
G0 X74.447 Y47.428
G0 X74.030 Y47.191
G1 F3180 X75.407 Y45.400 E37.22660
G1 X77.188 Y44.033 E37.43662
G1 X79.266 Y43.172 E37.64703
G1 X81.500 Y42.878 E37.85781
G1 X83.734 Y43.172 E38.06859
G1 X85.811 Y44.032 E38.27888
G1 X87.596 Y45.403 E38.48942
G1 X88.966 Y47.188 E38.69991
G1 X89.828 Y49.270 E38.91070
G1 X90.122 Y51.500 E39.12111
G1 X89.828 Y53.729 E39.33143
G1 X88.967 Y55.812 E39.54227
G1 X87.592 Y57.599 E39.75319
G1 X85.811 Y58.967 E39.96326
G1 X83.734 Y59.827 E40.17355
G1 X81.500 Y60.122 E40.38434
G1 X79.266 Y59.827 E40.59514
G1 X77.188 Y58.966 E40.80555
G1 X75.403 Y57.596 E41.01603
G1 X74.035 Y55.815 E41.22611
G1 X73.171 Y53.729 E41.43732
G1 X72.878 Y51.500 E41.64762
G1 X73.171 Y49.267 E41.85830
G1 X74.030 Y47.191 E42.06846
G0 F7680 X74.835 Y47.789
;TYPE:SKIN
G1 F3180 X76.566 Y49.519 E42.29739
G0 F7680 X76.885 Y48.778
G1 F3180 X75.275 Y47.168 E42.51038
G0 F7680 X75.736 Y46.568
G1 F3180 X77.346 Y48.178 E42.72337
G0 F7680 X77.837 Y47.608
G1 F3180 X76.228 Y45.999 E42.93623
G0 F7680 X76.827 Y45.538
G1 F3180 X78.437 Y47.147 E43.14915
G0 F7680 X79.092 Y46.741
G1 F3180 X77.428 Y45.078 E43.36922
G0 F7680 X78.114 Y44.703
G1 F3180 X79.842 Y46.432 E43.59788
G0 F7680 X80.713 Y46.241
G1 F3180 X78.865 Y44.393 E43.84236
G0 F7680 X79.637 Y44.105
G1 F3180 X81.696 Y46.164 E44.11474
G0 F7680 X82.934 Y46.341
G1 F3180 X80.574 Y43.982 E44.42689
G0 F7680 X81.516 Y43.863
G1 F3180 X89.135 Y51.481 E45.43475
G0 F7680 X89.016 Y52.423
G1 F3180 X86.658 Y50.065 E45.74669
G0 F7680 X86.834 Y51.302
G1 F3180 X88.892 Y53.360 E46.01895
G0 F7680 X88.604 Y54.133
G1 F3180 X86.756 Y52.284 E46.26349
G0 F7680 X86.565 Y53.154
G1 F3180 X88.295 Y54.884 E46.49235
G0 F7680 X87.921 Y55.571
G1 F3180 X86.255 Y53.904 E46.71282
G0 F7680 X85.849 Y54.560
G1 F3180 X87.459 Y56.170 E46.92580
G0 F7680 X86.998 Y56.770
G1 F3180 X85.388 Y55.159 E47.13886
G0 F7680 X84.820 Y55.652
G1 F3180 X86.428 Y57.260 E47.35158
G0 F7680 X85.829 Y57.721
G1 F3180 X84.220 Y56.113 E47.56437
G0 F7680 X83.479 Y56.432
G1 F3180 X85.207 Y58.160 E47.79297
G0 F7680 X84.457 Y58.471
G1 F3180 X82.689 Y56.703 E48.02687
G0 F7680 X81.753 Y56.828
G1 F3180 X83.707 Y58.781 E48.28530
G0 F7680 X82.827 Y58.962
G1 F3180 X80.608 Y56.743 E48.57885
G0 F7680 X79.038 Y56.234
G1 F3180 X81.890 Y59.086 E48.95615
G0 F7680 X80.788 Y59.044
G1 F3180 X73.954 Y52.210 E49.86023
G0 F7680 X73.912 Y51.108
G1 F3180 X76.762 Y53.958 E50.23726
G0 F7680 X76.255 Y52.390
G1 F3180 X74.035 Y50.170 E50.53094
G0 F7680 X74.216 Y49.290
G1 F3180 X76.173 Y51.247 E50.78984
G0 F7680 X76.294 Y50.308
G1 F3180 X74.526 Y48.540 E51.02373
G0 F7680 X74.113 Y53.430
G1 F3180 X79.565 Y58.882 E51.74498
G0 F7680 X77.776 Y58.154
G1 F3180 X74.843 Y55.220 E52.13306
G0 F7680 X77.347 Y48.838
G0 X79.022 Y47.207
G0 X82.738 Y44.024
G1 F3180 X88.974 Y50.260 E52.95803
G0 F7680 X88.581 Y48.806
G1 F3180 X84.191 Y44.416 E53.53879
G1 F2400 E47.53879
G0 F7680 X97.901 Y49.465
;TYPE:WALL-INNER
G1 F2400 E53.53879
G1 F3180 X98.685 Y47.570 E53.73062
G1 X99.940 Y45.937 E53.92328
G1 X101.567 Y44.688 E54.11515
G1 X103.465 Y43.901 E54.30736
G1 X105.499 Y43.634 E54.49926
G1 X107.536 Y43.902 E54.69145
G1 X109.432 Y44.687 E54.88341
G1 X111.061 Y45.938 E55.07554
G1 X112.311 Y47.566 E55.26755
G1 X113.098 Y49.467 E55.46001
G1 X113.365 Y51.502 E55.65200
G1 X113.098 Y53.531 E55.84344
G1 X112.312 Y55.433 E56.03596
G1 X111.059 Y57.062 E56.22820
G1 X109.432 Y58.312 E56.42013
G1 X107.536 Y59.097 E56.61209
G1 X105.500 Y59.366 E56.80420
G1 X103.464 Y59.097 E56.99631
G1 X101.567 Y58.311 E57.18840
G1 X99.938 Y57.061 E57.38047
G1 X98.690 Y55.436 E57.57214
G1 X97.901 Y53.531 E57.76502
G1 X97.635 Y51.497 E57.95691
G1 X97.901 Y49.465 E58.14861
G0 F7680 X100.636 Y49.937
G1 F3180 X100.540 Y50.172 E58.17236
G1 X100.400 Y51.246 E58.27367
G1 X100.365 Y51.498 E58.29747
G1 X100.507 Y52.579 E58.39946
G1 X100.541 Y52.830 E58.42316
G1 X100.955 Y53.832 E58.52457
G1 X101.052 Y54.067 E58.54836
G1 X101.715 Y54.931 E58.65023
G1 X101.870 Y55.131 E58.67390
G1 X102.933 Y55.947 E58.79926
G1 X104.170 Y56.459 E58.92449
G1 X105.500 Y56.635 E59.04999
G1 X106.829 Y56.459 E59.17540
G1 X108.067 Y55.947 E59.30072
G1 X109.130 Y55.130 E59.42613
G1 X109.791 Y54.270 E59.52760
G1 X109.946 Y54.068 E59.55141
G1 X110.363 Y53.061 E59.65337
G1 X110.459 Y52.828 E59.67694
G1 X110.635 Y51.500 E59.80226
G1 X110.492 Y50.419 E59.90426
G1 X110.458 Y50.169 E59.92786
G1 X110.043 Y49.168 E60.02923
G1 X109.947 Y48.934 E60.05289
G1 X109.284 Y48.068 E60.15491
G1 X109.129 Y47.868 E60.17858
G1 X108.067 Y47.052 E60.30386
G1 X106.828 Y46.540 E60.42927
G1 X105.500 Y46.365 E60.55457
G1 X104.171 Y46.540 E60.67996
G1 X102.933 Y47.052 E60.80528
G1 X101.869 Y47.869 E60.93077
G1 X101.208 Y48.730 E61.03231
G1 X101.053 Y48.931 E61.05606
G1 X100.636 Y49.937 E61.15793
G0 F7680 X101.271 Y50.366
;TYPE:WALL-OUTER
G1 F3180 X101.142 Y51.346 E61.25039
G1 X101.122 Y51.499 E61.26482
G1 X101.250 Y52.480 E61.35737
G1 X101.271 Y52.633 E61.37181
G1 X101.707 Y53.689 E61.47869
G1 X102.404 Y54.595 E61.58561
G1 X103.311 Y55.292 E61.69262
G1 X104.366 Y55.728 E61.79940
G1 X105.500 Y55.878 E61.90641
G1 X106.633 Y55.728 E62.01332
G1 X107.689 Y55.292 E62.12019
G1 X108.595 Y54.595 E62.22712
G1 X109.292 Y53.689 E62.33404
G1 X109.728 Y52.633 E62.44092
G1 X109.878 Y51.500 E62.54783
G1 X109.728 Y50.366 E62.65483
G1 X109.292 Y49.311 E62.76161
G1 X108.689 Y48.525 E62.85428
G1 X108.595 Y48.403 E62.86869
G1 X107.689 Y47.707 E62.97556
G1 X106.633 Y47.271 E63.08243
G1 X105.500 Y47.122 E63.18933
G1 X104.366 Y47.271 E63.29632
G1 X103.311 Y47.707 E63.40311
G1 X102.404 Y48.404 E63.51011
G1 X101.802 Y49.188 E63.60258
G1 X101.708 Y49.310 E63.61698
G1 X101.271 Y50.366 E63.72389
G0 F7680 X100.833 Y50.184
G0 X97.631 Y49.396
G0 X97.171 Y49.267
G1 F3180 X98.030 Y47.191 E63.93406
G1 X99.407 Y45.400 E64.14539
G1 X101.188 Y44.033 E64.35541
G1 X103.266 Y43.172 E64.56582
G1 X105.500 Y42.878 E64.77660
G1 X107.734 Y43.172 E64.98737
G1 X109.811 Y44.032 E65.19766
G1 X111.596 Y45.403 E65.40821
G1 X112.966 Y47.188 E65.61869
G1 X113.828 Y49.270 E65.82949
G1 X114.122 Y51.500 E66.03989
G1 X113.828 Y53.729 E66.25021
G1 X112.967 Y55.812 E66.46105
G1 X111.592 Y57.599 E66.67197
G1 X109.811 Y58.967 E66.88205
G1 X107.734 Y59.827 E67.09234
G1 X105.500 Y60.122 E67.30313
G1 X103.266 Y59.827 E67.51392
G1 X101.188 Y58.966 E67.72433
G1 X99.403 Y57.596 E67.93482
G1 X98.035 Y55.815 E68.14489
G1 X97.171 Y53.729 E68.35610
G1 X96.878 Y51.500 E68.56641
G1 X97.171 Y49.267 E68.77708
G0 F7680 X98.080 Y49.820
;TYPE:SKIN
G1 F3180 X100.196 Y51.936 E69.05701
G0 F7680 X100.218 Y50.897
G1 F3180 X98.331 Y49.010 E69.30664
G0 F7680 X98.641 Y48.260
G1 F3180 X100.370 Y49.989 E69.53538
G0 F7680 X100.681 Y49.239
G1 F3180 X98.986 Y47.544 E69.75961
G0 F7680 X99.447 Y46.944
G1 F3180 X101.057 Y48.554 E69.97260
G0 F7680 X101.519 Y47.955
G1 F3180 X99.908 Y46.345 E70.18565
G0 F7680 X97.957 Y50.758
G1 F3180 X100.485 Y53.286 E70.52009
G0 F7680 X98.563 Y54.546
G1 F3180 X102.450 Y58.433 E71.03430
G0 F7680 X104.020 Y58.942
G1 F3180 X98.054 Y52.976 E71.82355
G0 F7680 X97.895 Y51.756
G1 F3180 X105.243 Y59.104 E72.79563
G0 F7680 X106.239 Y59.040
G1 F3180 X103.712 Y56.513 E73.12993
G0 F7680 X105.064 Y56.804
G1 F3180 X107.176 Y58.916 E73.40933
G0 F7680 X107.987 Y58.666
G1 F3180 X106.102 Y56.781 E73.65870
G0 F7680 X107.008 Y56.627
G1 F3180 X108.737 Y58.356 E73.88743
G0 F7680 X109.453 Y58.011
G1 F3180 X107.759 Y56.317 E74.11153
G0 F7680 X108.444 Y55.941
G1 F3180 X110.053 Y57.550 E74.32439
G0 F7680 X110.653 Y57.089
G1 F3180 X109.042 Y55.479 E74.53744
G0 F7680 X109.560 Y54.936
G1 F3180 X111.171 Y56.547 E74.75057
G0 F7680 X111.632 Y55.947
G1 F3180 X110.022 Y54.337 E74.96355
G0 F7680 X110.370 Y53.625
G1 F3180 X112.094 Y55.348 E75.19156
G0 F7680 X112.410 Y54.604
G1 F3180 X110.677 Y52.871 E75.42082
G0 F7680 X110.802 Y51.935
G1 F3180 X112.720 Y53.853 E75.67456
G0 F7680 X112.939 Y53.011
G1 F3180 X110.773 Y50.845 E75.96110
G0 F7680 X110.377 Y49.389
G1 F3180 X113.062 Y52.074 E76.31630
G0 F7680 X113.075 Y51.026
G1 F3180 X105.972 Y43.924 E77.25590
G0 F7680 X104.924 Y43.936
G1 F3180 X107.606 Y46.618 E77.61071
G0 F7680 X106.152 Y46.224
G1 F3180 X103.987 Y44.060 E77.89705
G0 F7680 X103.144 Y44.277
G1 F3180 X105.062 Y46.195 E78.15079
G0 F7680 X104.125 Y46.319
G1 F3180 X102.394 Y44.588 E78.37978
G0 F7680 X101.651 Y44.906
G1 F3180 X103.371 Y46.626 E78.60732
G0 F7680 X102.660 Y46.975
G1 F3180 X101.051 Y45.366 E78.82018
G0 F7680 X100.451 Y45.827
G1 F3180 X102.060 Y47.436 E79.03304
G0 F7680 X107.193 Y44.084
G1 F3180 X112.914 Y49.805 E79.78988
G0 F7680 X112.301 Y48.132
G1 F3180 X108.865 Y44.695 E80.24449
;LAYER:1
G1 F2400 E74.24449
G0 F7680 X89.098 Y49.466 Z0.600
;TYPE:WALL-INNER
G1 F2400 E80.24449
G1 F3120 X89.365 Y51.504 E80.43677
G1 X89.098 Y53.531 E80.62802
G1 X88.311 Y55.433 E80.82057
G1 X87.061 Y57.061 E81.01257
G1 X85.432 Y58.312 E81.20470
G1 X83.536 Y59.097 E81.39666
G1 X81.500 Y59.366 E81.58878
G1 X79.464 Y59.097 E81.78089
G1 X77.567 Y58.311 E81.97297
G1 X75.938 Y57.061 E82.16505
G1 X74.689 Y55.435 E82.35684
G1 X73.901 Y53.533 E82.54943
G1 X73.635 Y51.496 E82.74160
G1 X73.901 Y49.465 E82.93321
G1 X74.685 Y47.570 E83.12504
G1 X75.938 Y45.938 E83.31751
